thuyhuongctu-cell/my_thesis_phd_candidate_26/p7/replication/results_expanded/p7_coefs_all_models.csv
model,term,b,se,t,p,sig,n,r2,adj_r2,tp,tp_raw,tp_se,b1,b2,lm_p,shape,tci_mod_joint_F,tci_mod_joint_p,dai_mod_joint_F,dai_mod_joint_p
M0,Intercept,14.7408,0.0095,1549.029,0.0,***,68957,0.0,0.0,,,,,,,,,,,
M1,Intercept,14.7405,0.0095,1549.277,0.0,***,68957,0.0004,0.0004,,,,,,,,,,,
M1,fsts_c,0.2087,0.0403,5.175,0.0,***,68957,0.0004,0.0004,,,,,,,,,,,
M2,Intercept,14.8349,0.0125,1185.475,0.0,***,68957,0.0022,0.0021,38.2,0.38171513342539304,3.23,1.1393,-1.4924,0.0,inverted-U,,,,
M2,fsts_c,1.1393,0.1087,10.477,0.0,***,68957,0.0022,0.0021,38.2,0.38171513342539304,3.23,1.1393,-1.4924,0.0,inverted-U,,,,
M2,fsts_c2,-1.4924,0.1505,-9.915,0.0,***,68957,0.0022,0.0021,38.2,0.38171513342539304,3.23,1.1393,-1.4924,0.0,inverted-U,,,,
M3,Intercept,14.1193,0.0845,167.135,0.0,***,30458,0.0111,0.0109,35.5,0.3548394622193637,5.98,0.9185,-1.2942,0.0,inverted-U,,,,
M3,fsts_c,0.9185,0.1756,5.231,0.0,***,30458,0.0111,0.0109,35.5,0.3548394622193637,5.98,0.9185,-1.2942,0.0,inverted-U,,,,
M3,fsts_c2,-1.2942,0.2469,-5.241,0.0,***,30458,0.0111,0.0109,35.5,0.3548394622193637,5.98,0.9185,-1.2942,0.0,inverted-U,,,,
M3,female_owner,0.0886,0.0326,2.722,0.0065,**,30458,0.0111,0.0109,35.5,0.3548394622193637,5.98,0.9185,-1.2942,0.0,inverted-U,,,,
M3,foreign_own_pct,0.5521,0.0557,9.909,0.0,***,30458,0.0111,0.0109,35.5,0.3548394622193637,5.98,0.9185,-1.2942,0.0,inverted-U,,,,
M3,firm_age,-0.0155,0.0011,-13.957,0.0,***,30458,0.0111,0.0109,35.5,0.3548394622193637,5.98,0.9185,-1.2942,0.0,inverted-U,,,,
M3,ln_size,0.076,0.0127,5.961,0.0,***,30458,0.0111,0.0109,35.5,0.3548394622193637,5.98,0.9185,-1.2942,0.0,inverted-U,,,,
M5,Intercept,12.8467,0.1751,73.357,0.0,***,30458,0.6505,0.65,38.6,0.3864522227253788,5.46,0.7155,-0.9257,0.0,inverted-U,,,,
M5,C(cy_fe)[T.Armenia_2009],1.7125,0.2079,8.238,0.0,***,30458,0.6505,0.65,38.6,0.3864522227253788,5.46,0.7155,-0.9257,0.0,inverted-U,,,,
M5,C(cy_fe)[T.Armenia_2013],2.5749,0.2401,10.724,0.0,***,30458,0.6505,0.65,38.6,0.3864522227253788,5.46,0.7155,-0.9257,0.0,inverted-U,,,,
M5,C(cy_fe)[T.Armenia_2020],2.9502,0.1819,16.218,0.0,***,30458,0.6505,0.65,38.6,0.3864522227253788,5.46,0.7155,-0.9257,0.0,inverted-U,,,,
M5,C(cy_fe)[T.Bangladesh_2013],0.3459,0.1763,1.962,0.0498,*,30458,0.6505,0.65,38.6,0.3864522227253788,5.46,0.7155,-0.9257,0.0,inverted-U,,,,
M5,C(cy_fe)[T.Bhutan_2009],0.204,0.2014,1.013,0.3111,,30458,0.6505,0.65,38.6,0.3864522227253788,5.46,0.7155,-0.9257,0.0,inverted-U,,,,
M5,C(cy_fe)[T.Bhutan_2015],0.7472,0.2036,3.67,0.0002,***,30458,0.6505,0.65,38.6,0.3864522227253788,5.46,0.7155,-0.9257,0.0,inverted-U,,,,
M5,C(cy_fe)[T.Cambodia_2016],4.8483,0.1946,24.917,0.0,***,30458,0.6505,0.65,38.6,0.3864522227253788,5.46,0.7155,-0.9257,0.0,inverted-U,,,,
M5,C(cy_fe)[T.Cyprus_2019],-1.6097,0.1803,-8.927,0.0,***,30458,0.6505,0.65,38.6,0.3864522227253788,5.46,0.7155,-0.9257,0.0,inverted-U,,,,
M5,C(cy_fe)[T.India_2014],0.9535,0.1707,5.585,0.0,***,30458,0.6505,0.65,38.6,0.3864522227253788,5.46,0.7155,-0.9257,0.0,inverted-U,,,,
M5,C(cy_fe)[T.Indonesia_2009],4.8312,0.1797,26.88,0.0,***,30458,0.6505,0.65,38.6,0.3864522227253788,5.46,0.7155,-0.9257,0.0,inverted-U,,,,
M5,C(cy_fe)[T.Indonesia_2015],5.4216,0.1829,29.644,0.0,***,30458,0.6505,0.65,38.6,0.3864522227253788,5.46,0.7155,-0.9257,0.0,inverted-U,,,,
M5,C(cy_fe)[T.Kazakhstan_2009],1.3562,0.1904,7.124,0.0,***,30458,0.6505,0.65,38.6,0.3864522227253788,5.46,0.7155,-0.9257,0.0,inverted-U,,,,
M5,C(cy_fe)[T.Kazakhstan_2013],2.2726,0.1802,12.614,0.0,***,30458,0.6505,0.65,38.6,0.3864522227253788,5.46,0.7155,-0.9257,0.0,inverted-U,,,,
M5,C(cy_fe)[T.Kazakhstan_2019],2.4332,0.1763,13.798,0.0,***,30458,0.6505,0.65,38.6,0.3864522227253788,5.46,0.7155,-0.9257,0.0,inverted-U,,,,
M5,C(cy_fe)[T.KyrgyzRepublic_2013],0.5516,0.193,2.859,0.0043,**,30458,0.6505,0.65,38.6,0.3864522227253788,5.46,0.7155,-0.9257,0.0,inverted-U,,,,
M5,C(cy_fe)[T.KyrgyzRepublic_2019],0.5914,0.199,2.972,0.003,**,30458,0.6505,0.65,38.6,0.3864522227253788,5.46,0.7155,-0.9257,0.0,inverted-U,,,,
M5,C(cy_fe)[T.Laos_2016],5.7166,0.1817,31.455,0.0,***,30458,0.6505,0.65,38.6,0.3864522227253788,5.46,0.7155,-0.9257,0.0,inverted-U,,,,
M5,C(cy_fe)[T.Laos_2018],5.5133,0.1933,28.521,0.0,***,30458,0.6505,0.65,38.6,0.3864522227253788,5.46,0.7155,-0.9257,0.0,inverted-U,,,,
M5,C(cy_fe)[T.Malaysia_2015],-2.5218,0.1845,-13.669,0.0,***,30458,0.6505,0.65,38.6,0.3864522227253788,5.46,0.7155,-0.9257,0.0,inverted-U,,,,
M5,C(cy_fe)[T.Mongolia_2009],2.7203,0.1852,14.689,0.0,***,30458,0.6505,0.65,38.6,0.3864522227253788,5.46,0.7155,-0.9257,0.0,inverted-U,,,,
M5,C(cy_fe)[T.Mongolia_2013],4.0604,0.1795,22.619,0.0,***,30458,0.6505,0.65,38.6,0.3864522227253788,5.46,0.7155,-0.9257,0.0,inverted-U,,,,
M5,C(cy_fe)[T.Mongolia_2019],4.3304,0.1824,23.738,0.0,***,30458,0.6505,0.65,38.6,0.3864522227253788,5.46,0.7155,-0.9257,0.0,inverted-U,,,,
M5,C(cy_fe)[T.Myanmar_2014],2.8089,0.181,15.522,0.0,***,30458,0.6505,0.65,38.6,0.3864522227253788,5.46,0.7155,-0.9257,0.0,inverted-U,,,,
M5,C(cy_fe)[T.Myanmar_2016],3.4623,0.1776,19.492,0.0,***,30458,0.6505,0.65,38.6,0.3864522227253788,5.46,0.7155,-0.9257,0.0,inverted-U,,,,
M5,C(cy_fe)[T.Pakistan_2013],0.7863,0.1946,4.04,0.0001,***,30458,0.6505,0.65,38.6,0.3864522227253788,5.46,0.7155,-0.9257,0.0,inverted-U,,,,
M5,C(cy_fe)[T.Philippines_2009],0.8432,0.1764,4.781,0.0,***,30458,0.6505,0.65,38.6,0.3864522227253788,5.46,0.7155,-0.9257,0.0,inverted-U,,,,
M5,C(cy_fe)[T.Philippines_2015],1.0916,0.1757,6.211,0.0,***,30458,0.6505,0.65,38.6,0.3864522227253788,5.46,0.7155,-0.9257,0.0,inverted-U,,,,
M5,C(cy_fe)[T.Philippines_panel_2009],0.8432,0.1807,4.667,0.0,***,30458,0.6505,0.65,38.6,0.3864522227253788,5.46,0.7155,-0.9257,0.0,inverted-U,,,,
M5,C(cy_fe)[T.Philippines_panel_2015],1.0916,0.1794,6.084,0.0,***,30458,0.6505,0.65,38.6,0.3864522227253788,5.46,0.7155,-0.9257,0.0,inverted-U,,,,
M5,C(cy_fe)[T.SriLanka_2011],0.4108,0.185,2.221,0.0264,*,30458,0.6505,0.65,38.6,0.3864522227253788,5.46,0.7155,-0.9257,0.0,inverted-U,,,,
M5,C(cy_fe)[T.Tajikistan_2013],-3.078,0.2216,-13.89,0.0,***,30458,0.6505,0.65,38.6,0.3864522227253788,5.46,0.7155,-0.9257,0.0,inverted-U,,,,
M5,C(cy_fe)[T.Tajikistan_2019],-1.8781,0.2077,-9.043,0.0,***,30458,0.6505,0.65,38.6,0.3864522227253788,5.46,0.7155,-0.9257,0.0,inverted-U,,,,
M5,C(cy_fe)[T.Thailand_2016],0.6377,0.1805,3.533,0.0004,***,30458,0.6505,0.65,38.6,0.3864522227253788,5.46,0.7155,-0.9257,0.0,inverted-U,,,,
M5,C(cy_fe)[T.TimorLeste_2009],-3.8287,0.2929,-13.073,0.0,***,30458,0.6505,0.65,38.6,0.3864522227253788,5.46,0.7155,-0.9257,0.0,inverted-U,,,,
M5,C(cy_fe)[T.TimorLeste_2015],-3.8686,0.1964,-19.693,0.0,***,30458,0.6505,0.65,38.6,0.3864522227253788,5.46,0.7155,-0.9257,0.0,inverted-U,,,,
M5,C(cy_fe)[T.Uzbekistan_2013],3.5887,0.2016,17.805,0.0,***,30458,0.6505,0.65,38.6,0.3864522227253788,5.46,0.7155,-0.9257,0.0,inverted-U,,,,
M5,C(cy_fe)[T.Uzbekistan_2019],4.8592,0.1833,26.517,0.0,***,30458,0.6505,0.65,38.6,0.3864522227253788,5.46,0.7155,-0.9257,0.0,inverted-U,,,,
M5,C(cy_fe)[T.Vanuatu_2009],1.954,0.2364,8.266,0.0,***,30458,0.6505,0.65,38.6,0.3864522227253788,5.46,0.7155,-0.9257,0.0,inverted-U,,,,
M5,C(cy_fe)[T.Vietnam_2009],6.3048,0.1804,34.95,0.0,***,30458,0.6505,0.65,38.6,0.3864522227253788,5.46,0.7155,-0.9257,0.0,inverted-U,,,,
M5,C(cy_fe)[T.Vietnam_2015],7.1979,0.18,39.977,0.0,***,30458,0.6505,0.65,38.6,0.3864522227253788,5.46,0.7155,-0.9257,0.0,inverted-U,,,,
M5,fsts_c,0.7155,0.114,6.278,0.0,***,30458,0.6505,0.65,38.6,0.3864522227253788,5.46,0.7155,-0.9257,0.0,inverted-U,,,,
M5,fsts_c2,-0.9257,0.1721,-5.378,0.0,***,30458,0.6505,0.65,38.6,0.3864522227253788,5.46,0.7155,-0.9257,0.0,inverted-U,,,,
M5,female_owner,-0.0174,0.0216,-0.802,0.4223,,30458,0.6505,0.65,38.6,0.3864522227253788,5.46,0.7155,-0.9257,0.0,inverted-U,,,,
M5,foreign_own_pct,-0.3623,0.0333,-10.888,0.0,***,30458,0.6505,0.65,38.6,0.3864522227253788,5.46,0.7155,-0.9257,0.0,inverted-U,,,,
M5,firm_age,0.0052,0.0007,7.203,0.0,***,30458,0.6505,0.65,38.6,0.3864522227253788,5.46,0.7155,-0.9257,0.0,inverted-U,,,,
M5,ln_size,0.0771,0.0078,9.868,0.0,***,30458,0.6505,0.65,38.6,0.3864522227253788,5.46,0.7155,-0.9257,0.0,inverted-U,,,,
M6,Intercept,14.2678,0.0841,169.673,0.0,***,30225,0.0198,0.0196,33.0,0.3295816356784889,6.55,0.7832,-1.1881,0.0,inverted-U,,,,
M6,fsts_c,0.7832,0.1765,4.437,0.0,***,30225,0.0198,0.0196,33.0,0.3295816356784889,6.55,0.7832,-1.1881,0.0,inverted-U,,,,
M6,fsts_c2,-1.1881,0.2473,-4.805,0.0,***,30225,0.0198,0.0196,33.0,0.3295816356784889,6.55,0.7832,-1.1881,0.0,inverted-U,,,,
M6,tci_z,0.3147,0.021,14.984,0.0,***,30225,0.0198,0.0196,33.0,0.3295816356784889,6.55,0.7832,-1.1881,0.0,inverted-U,,,,
M6,female_owner,0.0925,0.0326,2.839,0.0045,**,30225,0.0198,0.0196,33.0,0.3295816356784889,6.55,0.7832,-1.1881,0.0,inverted-U,,,,
M6,foreign_own_pct,0.6181,0.0555,11.141,0.0,***,30225,0.0198,0.0196,33.0,0.3295816356784889,6.55,0.7832,-1.1881,0.0,inverted-U,,,,
M6,firm_age,-0.0158,0.0011,-14.244,0.0,***,30225,0.0198,0.0196,33.0,0.3295816356784889,6.55,0.7832,-1.1881,0.0,inverted-U,,,,
M6,ln_size,0.0129,0.0131,0.989,0.3225,,30225,0.0198,0.0196,33.0,0.3295816356784889,6.55,0.7832,-1.1881,0.0,inverted-U,,,,
M7,Intercept,14.2649,0.084,169.752,0.0,***,30225,0.021,0.0208,37.8,0.37832530646041884,8.43,0.698,-0.9225,0.0001,inverted-U,16.8173,0.0,,
M7,fsts_c,0.698,0.1757,3.972,0.0001,***,30225,0.021,0.0208,37.8,0.37832530646041884,8.43,0.698,-0.9225,0.0001,inverted-U,16.8173,0.0,,
M7,fsts_c2,-0.9225,0.2479,-3.722,0.0002,***,30225,0.021,0.0208,37.8,0.37832530646041884,8.43,0.698,-0.9225,0.0001,inverted-U,16.8173,0.0,,
M7,tci_z,0.4138,0.0304,13.622,0.0,***,30225,0.021,0.0208,37.8,0.37832530646041884,8.43,0.698,-0.9225,0.0001,inverted-U,16.8173,0.0,,
M7,fsts_c_x_tci,0.5323,0.217,2.453,0.0142,*,30225,0.021,0.0208,37.8,0.37832530646041884,8.43,0.698,-0.9225,0.0001,inverted-U,16.8173,0.0,,
M7,fsts_c2_x_tci,-1.1596,0.3019,-3.841,0.0001,***,30225,0.021,0.0208,37.8,0.37832530646041884,8.43,0.698,-0.9225,0.0001,inverted-U,16.8173,0.0,,
M7,female_owner,0.0855,0.0326,2.624,0.0087,**,30225,0.021,0.0208,37.8,0.37832530646041884,8.43,0.698,-0.9225,0.0001,inverted-U,16.8173,0.0,,
M7,foreign_own_pct,0.6208,0.0554,11.212,0.0,***,30225,0.021,0.0208,37.8,0.37832530646041884,8.43,0.698,-0.9225,0.0001,inverted-U,16.8173,0.0,,
M7,firm_age,-0.0158,0.0011,-14.295,0.0,***,30225,0.021,0.0208,37.8,0.37832530646041884,8.43,0.698,-0.9225,0.0001,inverted-U,16.8173,0.0,,
M7,ln_size,0.0091,0.0131,0.697,0.4857,,30225,0.021,0.0208,37.8,0.37832530646041884,8.43,0.698,-0.9225,0.0001,inverted-U,16.8173,0.0,,
M8,Intercept,14.3803,0.0851,168.999,0.0,***,30134,0.0253,0.0249,38.8,0.3877290810902494,10.39,0.59,-0.7608,0.0012,inverted-U,,,2.0181,0.1329
M8,fsts_c,0.59,0.1781,3.312,0.0009,***,30134,0.0253,0.0249,38.8,0.3877290810902494,10.39,0.59,-0.7608,0.0012,inverted-U,,,2.0181,0.1329
M8,fsts_c2,-0.7608,0.2516,-3.024,0.0025,**,30134,0.0253,0.0249,38.8,0.3877290810902494,10.39,0.59,-0.7608,0.0012,inverted-U,,,2.0181,0.1329
M8,tci_z,0.3647,0.0315,11.569,0.0,***,30134,0.0253,0.0249,38.8,0.3877290810902494,10.39,0.59,-0.7608,0.0012,inverted-U,,,2.0181,0.1329
M8,fsts_c_x_tci,0.6482,0.2274,2.851,0.0044,**,30134,0.0253,0.0249,38.8,0.3877290810902494,10.39,0.59,-0.7608,0.0012,inverted-U,,,2.0181,0.1329
M8,fsts_c2_x_tci,-1.2303,0.3157,-3.898,0.0001,***,30134,0.0253,0.0249,38.8,0.3877290810902494,10.39,0.59,-0.7608,0.0012,inverted-U,,,2.0181,0.1329
M8,dai_z,0.1816,0.0266,6.836,0.0,***,30134,0.0253,0.0249,38.8,0.3877290810902494,10.39,0.59,-0.7608,0.0012,inverted-U,,,2.0181,0.1329
M8,fsts_c_x_dai,-0.2302,0.1905,-1.208,0.2269,,30134,0.0253,0.0249,38.8,0.3877290810902494,10.39,0.59,-0.7608,0.0012,inverted-U,,,2.0181,0.1329
M8,fsts_c2_x_dai,0.1799,0.2681,0.671,0.5021,,30134,0.0253,0.0249,38.8,0.3877290810902494,10.39,0.59,-0.7608,0.0012,inverted-U,,,2.0181,0.1329
M8,female_owner,0.0662,0.0327,2.027,0.0427,*,30134,0.0253,0.0249,38.8,0.3877290810902494,10.39,0.59,-0.7608,0.0012,inverted-U,,,2.0181,0.1329
M8,foreign_own_pct,0.639,0.0552,11.566,0.0,***,30134,0.0253,0.0249,38.8,0.3877290810902494,10.39,0.59,-0.7608,0.0012,inverted-U,,,2.0181,0.1329
M8,firm_age,-0.0157,0.0011,-14.261,0.0,***,30134,0.0253,0.0249,38.8,0.3877290810902494,10.39,0.59,-0.7608,0.0012,inverted-U,,,2.0181,0.1329
M8,ln_size,-0.0305,0.0137,-2.233,0.0256,*,30134,0.0253,0.0249,38.8,0.3877290810902494,10.39,0.59,-0.7608,0.0012,inverted-U,,,2.0181,0.1329
M9,Intercept,14.3585,0.0895,160.379,0.0,***,28208,0.0311,0.0305,30.3,0.30345592007841415,8.33,0.7361,-1.2128,0.0005,inverted-U,,,,
M9,fsts_c,0.7361,0.2231,3.3,0.001,***,28208,0.0311,0.0305,30.3,0.30345592007841415,8.33,0.7361,-1.2128,0.0005,inverted-U,,,,
M9,fsts_c2,-1.2128,0.2645,-4.585,0.0,***,28208,0.0311,0.0305,30.3,0.30345592007841415,8.33,0.7361,-1.2128,0.0005,inverted-U,,,,
M9,tci_z,0.3724,0.0332,11.204,0.0,***,28208,0.0311,0.0305,30.3,0.30345592007841415,8.33,0.7361,-1.2128,0.0005,inverted-U,,,,
M9,fsts_c_x_tci,0.6696,0.2387,2.805,0.005,**,28208,0.0311,0.0305,30.3,0.30345592007841415,8.33,0.7361,-1.2128,0.0005,inverted-U,,,,
M9,fsts_c2_x_tci,-1.2308,0.3313,-3.715,0.0002,***,28208,0.0311,0.0305,30.3,0.30345592007841415,8.33,0.7361,-1.2128,0.0005,inverted-U,,,,
M9,dai_z,0.1688,0.0279,6.06,0.0,***,28208,0.0311,0.0305,30.3,0.30345592007841415,8.33,0.7361,-1.2128,0.0005,inverted-U,,,,
M9,fsts_c_x_dai,-0.4358,0.1995,-2.185,0.0289,*,28208,0.0311,0.0305,30.3,0.30345592007841415,8.33,0.7361,-1.2128,0.0005,inverted-U,,,,
M9,fsts_c2_x_dai,0.4479,0.2809,1.594,0.1108,,28208,0.0311,0.0305,30.3,0.30345592007841415,8.33,0.7361,-1.2128,0.0005,inverted-U,,,,
M9,mgr_experience,0.0128,0.0017,7.719,0.0,***,28208,0.0311,0.0305,30.3,0.30345592007841415,8.33,0.7361,-1.2128,0.0005,inverted-U,,,,
M9,fsts_c_x_mgr,0.0078,0.0054,1.438,0.1505,,28208,0.0311,0.0305,30.3,0.30345592007841415,8.33,0.7361,-1.2128,0.0005,inverted-U,,,,
M9,mgr_female,0.1702,0.0464,3.671,0.0002,***,28208,0.0311,0.0305,30.3,0.30345592007841415,8.33,0.7361,-1.2128,0.0005,inverted-U,,,,
M9,female_owner,0.0006,0.0379,0.017,0.9866,,28208,0.0311,0.0305,30.3,0.30345592007841415,8.33,0.7361,-1.2128,0.0005,inverted-U,,,,
M9,foreign_own_pct,0.6541,0.0569,11.487,0.0,***,28208,0.0311,0.0305,30.3,0.30345592007841415,8.33,0.7361,-1.2128,0.0005,inverted-U,,,,
M9,firm_age,-0.0219,0.0013,-16.619,0.0,***,28208,0.0311,0.0305,30.3,0.30345592007841415,8.33,0.7361,-1.2128,0.0005,inverted-U,,,,
M9,ln_size,-0.0361,0.0143,-2.524,0.0116,*,28208,0.0311,0.0305,30.3,0.30345592007841415,8.33,0.7361,-1.2128,0.0005,inverted-U,,,,
M10,Intercept,11.7669,0.1806,65.157,0.0,***,28103,0.0386,0.0383,,,,-6.191703996543339,9.519628017351867,1.0,U or linear (b2>=0),,,,
M10,fsts_c,-6.1917,1.6429,-3.769,0.0002,***,28103,0.0386,0.0383,,,,-6.191703996543339,9.519628017351867,1.0,U or linear (b2>=0),,,,
M10,fsts_c2,9.5196,2.2753,4.184,0.0,***,28103,0.0386,0.0383,,,,-6.191703996543339,9.519628017351867,1.0,U or linear (b2>=0),,,,
M10,tci_z,0.2552,0.0226,11.288,0.0,***,28103,0.0386,0.0383,,,,-6.191703996543339,9.519628017351867,1.0,U or linear (b2>=0),,,,
M10,dai_z,0.1776,0.0182,9.748,0.0,***,28103,0.0386,0.0383,,,,-6.191703996543339,9.519628017351867,1.0,U or linear (b2>=0),,,,
M10,icrv_group,0.6428,0.0434,14.826,0.0,***,28103,0.0386,0.0383,,,,-6.191703996543339,9.519628017351867,1.0,U or linear (b2>=0),,,,
M10,fsts_c_x_icrv,1.684,0.4177,4.032,0.0001,***,28103,0.0386,0.0383,,,,-6.191703996543339,9.519628017351867,1.0,U or linear (b2>=0),,,,
M10,fsts_c2_x_icrv,-2.5889,0.5755,-4.499,0.0,***,28103,0.0386,0.0383,,,,-6.191703996543339,9.519628017351867,1.0,U or linear (b2>=0),,,,
M10,female_owner,0.1978,0.0347,5.709,0.0,***,28103,0.0386,0.0383,,,,-6.191703996543339,9.519628017351867,1.0,U or linear (b2>=0),,,,
M10,foreign_own_pct,0.6196,0.0562,11.031,0.0,***,28103,0.0386,0.0383,,,,-6.191703996543339,9.519628017351867,1.0,U or linear (b2>=0),,,,
M10,firm_age,-0.0163,0.0012,-14.165,0.0,***,28103,0.0386,0.0383,,,,-6.191703996543339,9.519628017351867,1.0,U or linear (b2>=0),,,,
M10,ln_size,-0.0057,0.014,-0.405,0.6858,,28103,0.0386,0.0383,,,,-6.191703996543339,9.519628017351867,1.0,U or linear (b2>=0),,,,
M11,Intercept,11.5331,0.1481,77.854,0.0,***,26317,0.053,0.0524,14.4,0.14367702796490278,24.54,0.4211,-1.4653,0.279,not confirmed,,,,
M11,fsts_c,0.4211,0.7188,0.586,0.558,,26317,0.053,0.0524,14.4,0.14367702796490278,24.54,0.4211,-1.4653,0.279,not confirmed,,,,
M11,fsts_c2,-1.4653,0.2884,-5.081,0.0,***,26317,0.053,0.0524,14.4,0.14367702796490278,24.54,0.4211,-1.4653,0.279,not confirmed,,,,
M11,tci_z,0.2567,0.0238,10.795,0.0,***,26317,0.053,0.0524,14.4,0.14367702796490278,24.54,0.4211,-1.4653,0.279,not confirmed,,,,
M11,dai_z,-0.0731,0.1313,-0.557,0.5776,,26317,0.053,0.0524,14.4,0.14367702796490278,24.54,0.4211,-1.4653,0.279,not confirmed,,,,
M11,icrv_group,0.6853,0.0315,21.785,0.0,***,26317,0.053,0.0524,14.4,0.14367702796490278,24.54,0.4211,-1.4653,0.279,not confirmed,,,,
M11,fsts_c_x_icrv,0.0977,0.1757,0.556,0.5781,,26317,0.053,0.0524,14.4,0.14367702796490278,24.54,0.4211,-1.4653,0.279,not confirmed,,,,
M11,fsts_c_x_dai,0.216,0.6687,0.323,0.7466,,26317,0.053,0.0524,14.4,0.14367702796490278,24.54,0.4211,-1.4653,0.279,not confirmed,,,,
M11,dai_x_icrv,0.0639,0.0332,1.928,0.0538,†,26317,0.053,0.0524,14.4,0.14367702796490278,24.54,0.4211,-1.4653,0.279,not confirmed,,,,
M11,fsts_c_x_dai_x_icrv,-0.0965,0.1633,-0.591,0.5543,,26317,0.053,0.0524,14.4,0.14367702796490278,24.54,0.4211,-1.4653,0.279,not confirmed,,,,
M11,mgr_experience,0.0161,0.0018,9.123,0.0,***,26317,0.053,0.0524,14.4,0.14367702796490278,24.54,0.4211,-1.4653,0.279,not confirmed,,,,
M11,fsts_c_x_mgr,0.0083,0.0061,1.351,0.1766,,26317,0.053,0.0524,14.4,0.14367702796490278,24.54,0.4211,-1.4653,0.279,not confirmed,,,,
M11,mgr_female,0.2367,0.0491,4.826,0.0,***,26317,0.053,0.0524,14.4,0.14367702796490278,24.54,0.4211,-1.4653,0.279,not confirmed,,,,
M11,female_owner,0.1115,0.0407,2.737,0.0062,**,26317,0.053,0.0524,14.4,0.14367702796490278,24.54,0.4211,-1.4653,0.279,not confirmed,,,,
M11,foreign_own_pct,0.6228,0.0577,10.803,0.0,***,26317,0.053,0.0524,14.4,0.14367702796490278,24.54,0.4211,-1.4653,0.279,not confirmed,,,,
M11,firm_age,-0.0226,0.0014,-16.574,0.0,***,26317,0.053,0.0524,14.4,0.14367702796490278,24.54,0.4211,-1.4653,0.279,not confirmed,,,,
M11,ln_size,-0.0109,0.0146,-0.743,0.4572,,26317,0.053,0.0524,14.4,0.14367702796490278,24.54,0.4211,-1.4653,0.279,not confirmed,,,,
