thuyhuongctu-cell/my_thesis_phd_candidate_26/p7/replication/results_expanded/p7_summary_focal.csv
model,term,b,se,t,p,sig,n,r2,adj_r2,tp,tp_raw,tp_se,b1,b2,lm_p,shape,tci_mod_joint_F,tci_mod_joint_p,dai_mod_joint_F,dai_mod_joint_p
M0,Intercept,14.8324,0.0101,1469.931,0.0,***,62642,0.0,0.0,,,,,,,,,,,
M1,Intercept,14.8323,0.0101,1470.206,0.0,***,62642,0.0004,0.0004,,,,,,,,,,,
M1,fsts_c,0.2154,0.0455,4.728,0.0,***,62642,0.0004,0.0004,,,,,,,,,,,
M2,Intercept,14.871,0.0129,1152.715,0.0,***,62642,0.0007,0.0007,47.7,0.47736893173269973,8.45,0.6281,-0.6579,0.0,inverted-U,,,,
M2,fsts_c,0.6281,0.1229,5.109,0.0,***,62642,0.0007,0.0007,47.7,0.47736893173269973,8.45,0.6281,-0.6579,0.0,inverted-U,,,,
M2,fsts_c2,-0.6579,0.168,-3.915,0.0001,***,62642,0.0007,0.0007,47.7,0.47736893173269973,8.45,0.6281,-0.6579,0.0,inverted-U,,,,
M3,Intercept,14.1027,0.0933,151.208,0.0,***,25230,0.013,0.0128,,,,0.048822564311612554,0.10354492664947192,1.0,U or linear (b2>=0),,,,
M3,fsts_c,0.0488,0.2176,0.224,0.8225,,25230,0.013,0.0128,,,,0.048822564311612554,0.10354492664947192,1.0,U or linear (b2>=0),,,,
M3,fsts_c2,0.1035,0.296,0.35,0.7265,,25230,0.013,0.0128,,,,0.048822564311612554,0.10354492664947192,1.0,U or linear (b2>=0),,,,
M5,Intercept,12.8707,0.1753,73.435,0.0,***,25230,0.6875,0.6871,38.1,0.38099903851363537,5.74,0.7622,-1.0002,0.0,inverted-U,,,,
M5,fsts_c,0.7622,0.1297,5.876,0.0,***,25230,0.6875,0.6871,38.1,0.38099903851363537,5.74,0.7622,-1.0002,0.0,inverted-U,,,,
M5,fsts_c2,-1.0002,0.1923,-5.202,0.0,***,25230,0.6875,0.6871,38.1,0.38099903851363537,5.74,0.7622,-1.0002,0.0,inverted-U,,,,
M6,Intercept,14.2729,0.0926,154.078,0.0,***,25085,0.0216,0.0213,,,,-0.10009079867724376,0.22578777007115497,1.0,U or linear (b2>=0),,,,
M6,fsts_c,-0.1001,0.219,-0.457,0.6477,,25085,0.0216,0.0213,,,,-0.10009079867724376,0.22578777007115497,1.0,U or linear (b2>=0),,,,
M6,fsts_c2,0.2258,0.2969,0.76,0.447,,25085,0.0216,0.0213,,,,-0.10009079867724376,0.22578777007115497,1.0,U or linear (b2>=0),,,,
M6,tci_z,0.3311,0.0245,13.528,0.0,***,25085,0.0216,0.0213,,,,-0.10009079867724376,0.22578777007115497,1.0,U or linear (b2>=0),,,,
M7,Intercept,14.2747,0.0925,154.373,0.0,***,25085,0.0237,0.0234,,,,-0.2460474892030151,0.6016213849559184,1.0,U or linear (b2>=0),21.9267,0.0,,
M7,fsts_c,-0.246,0.2179,-1.129,0.2589,,25085,0.0237,0.0234,,,,-0.2460474892030151,0.6016213849559184,1.0,U or linear (b2>=0),21.9267,0.0,,
M7,fsts_c2,0.6016,0.2974,2.023,0.0431,*,25085,0.0237,0.0234,,,,-0.2460474892030151,0.6016213849559184,1.0,U or linear (b2>=0),21.9267,0.0,,
M7,tci_z,0.4704,0.0336,14.008,0.0,***,25085,0.0237,0.0234,,,,-0.2460474892030151,0.6016213849559184,1.0,U or linear (b2>=0),21.9267,0.0,,
M7,fsts_c_x_tci,1.0096,0.2708,3.728,0.0002,***,25085,0.0237,0.0234,,,,-0.2460474892030151,0.6016213849559184,1.0,U or linear (b2>=0),21.9267,0.0,,
M7,fsts_c2_x_tci,-1.8617,0.3663,-5.083,0.0,***,25085,0.0237,0.0234,,,,-0.2460474892030151,0.6016213849559184,1.0,U or linear (b2>=0),21.9267,0.0,,
M8,Intercept,14.3832,0.0937,153.521,0.0,***,25018,0.0276,0.0271,,,,-0.39217149850124333,0.8423887904402545,1.0,U or linear (b2>=0),,,3.9589,0.0191
M8,fsts_c,-0.3922,0.222,-1.767,0.0773,†,25018,0.0276,0.0271,,,,-0.39217149850124333,0.8423887904402545,1.0,U or linear (b2>=0),,,3.9589,0.0191
M8,fsts_c2,0.8424,0.3036,2.775,0.0055,**,25018,0.0276,0.0271,,,,-0.39217149850124333,0.8423887904402545,1.0,U or linear (b2>=0),,,3.9589,0.0191
M8,tci_z,0.4017,0.0351,11.44,0.0,***,25018,0.0276,0.0271,,,,-0.39217149850124333,0.8423887904402545,1.0,U or linear (b2>=0),,,3.9589,0.0191
M8,fsts_c_x_tci,0.9992,0.2882,3.468,0.0005,***,25018,0.0276,0.0271,,,,-0.39217149850124333,0.8423887904402545,1.0,U or linear (b2>=0),,,3.9589,0.0191
M8,fsts_c2_x_tci,-1.719,0.3883,-4.427,0.0,***,25018,0.0276,0.0271,,,,-0.39217149850124333,0.8423887904402545,1.0,U or linear (b2>=0),,,3.9589,0.0191
M8,dai_z,0.2222,0.0292,7.603,0.0,***,25018,0.0276,0.0271,,,,-0.39217149850124333,0.8423887904402545,1.0,U or linear (b2>=0),,,3.9589,0.0191
M8,fsts_c_x_dai,0.1148,0.241,0.476,0.6339,,25018,0.0276,0.0271,,,,-0.39217149850124333,0.8423887904402545,1.0,U or linear (b2>=0),,,3.9589,0.0191
M8,fsts_c2_x_dai,-0.4218,0.3297,-1.279,0.2008,,25018,0.0276,0.0271,,,,-0.39217149850124333,0.8423887904402545,1.0,U or linear (b2>=0),,,3.9589,0.0191
M9,Intercept,14.3559,0.0973,147.542,0.0,***,23662,0.0347,0.0341,,,,-0.1473054639976843,0.2523366009604588,1.0,U or linear (b2>=0),,,,
M9,fsts_c,-0.1473,0.2758,-0.534,0.5933,,23662,0.0347,0.0341,,,,-0.1473054639976843,0.2523366009604588,1.0,U or linear (b2>=0),,,,
M9,fsts_c2,0.2523,0.3149,0.801,0.423,,23662,0.0347,0.0341,,,,-0.1473054639976843,0.2523366009604588,1.0,U or linear (b2>=0),,,,
M9,tci_z,0.4121,0.0364,11.31,0.0,***,23662,0.0347,0.0341,,,,-0.1473054639976843,0.2523366009604588,1.0,U or linear (b2>=0),,,,
M9,fsts_c_x_tci,0.9987,0.2997,3.332,0.0009,***,23662,0.0347,0.0341,,,,-0.1473054639976843,0.2523366009604588,1.0,U or linear (b2>=0),,,,
M9,fsts_c2_x_tci,-1.7125,0.403,-4.249,0.0,***,23662,0.0347,0.0341,,,,-0.1473054639976843,0.2523366009604588,1.0,U or linear (b2>=0),,,,
M9,dai_z,0.2067,0.0302,6.833,0.0,***,23662,0.0347,0.0341,,,,-0.1473054639976843,0.2523366009604588,1.0,U or linear (b2>=0),,,,
M9,fsts_c_x_dai,-0.1097,0.2494,-0.44,0.66,,23662,0.0347,0.0341,,,,-0.1473054639976843,0.2523366009604588,1.0,U or linear (b2>=0),,,,
M9,fsts_c2_x_dai,-0.134,0.3412,-0.393,0.6946,,23662,0.0347,0.0341,,,,-0.1473054639976843,0.2523366009604588,1.0,U or linear (b2>=0),,,,
M9,mgr_experience,0.0186,0.002,9.409,0.0,***,23662,0.0347,0.0341,,,,-0.1473054639976843,0.2523366009604588,1.0,U or linear (b2>=0),,,,
M9,mgr_female,0.171,0.0554,3.086,0.002,**,23662,0.0347,0.0341,,,,-0.1473054639976843,0.2523366009604588,1.0,U or linear (b2>=0),,,,
M10,Intercept,11.7049,0.2263,51.719,0.0,***,25018,0.0361,0.0356,,,,-7.208446523626747,11.858278621227111,1.0,U or linear (b2>=0),,,,
M10,fsts_c,-7.2084,1.8517,-3.893,0.0001,***,25018,0.0361,0.0356,,,,-7.208446523626747,11.858278621227111,1.0,U or linear (b2>=0),,,,
M10,fsts_c2,11.8583,2.6236,4.52,0.0,***,25018,0.0361,0.0356,,,,-7.208446523626747,11.858278621227111,1.0,U or linear (b2>=0),,,,
M10,tci_z,0.2622,0.025,10.504,0.0,***,25018,0.0361,0.0356,,,,-7.208446523626747,11.858278621227111,1.0,U or linear (b2>=0),,,,
M10,dai_z,0.1755,0.02,8.755,0.0,***,25018,0.0361,0.0356,,,,-7.208446523626747,11.858278621227111,1.0,U or linear (b2>=0),,,,
M10,icrv_group,0.6386,0.0547,11.68,0.0,***,25018,0.0361,0.0356,,,,-7.208446523626747,11.858278621227111,1.0,U or linear (b2>=0),,,,
M10,fsts_c_x_icrv,1.793,0.4676,3.835,0.0001,***,25018,0.0361,0.0356,,,,-7.208446523626747,11.858278621227111,1.0,U or linear (b2>=0),,,,
M11,Intercept,11.5236,0.1828,63.054,0.0,***,23662,0.0499,0.0492,-0.017,-0.017472749085483685,66.24,-0.0227,-0.6507,0.5105,not confirmed,,,,
M11,fsts_c,-0.0227,0.8621,-0.026,0.979,,23662,0.0499,0.0492,-0.017,-0.017472749085483685,66.24,-0.0227,-0.6507,0.5105,not confirmed,,,,
M11,fsts_c2,-0.6507,0.322,-2.021,0.0433,*,23662,0.0499,0.0492,-0.017,-0.017472749085483685,66.24,-0.0227,-0.6507,0.5105,not confirmed,,,,
M11,tci_z,0.2631,0.026,10.133,0.0,***,23662,0.0499,0.0492,-0.017,-0.017472749085483685,66.24,-0.0227,-0.6507,0.5105,not confirmed,,,,
M11,dai_z,-0.025,0.1692,-0.148,0.8824,,23662,0.0499,0.0492,-0.017,-0.017472749085483685,66.24,-0.0227,-0.6507,0.5105,not confirmed,,,,
M11,icrv_group,0.6619,0.0398,16.619,0.0,***,23662,0.0499,0.0492,-0.017,-0.017472749085483685,66.24,-0.0227,-0.6507,0.5105,not confirmed,,,,
M11,fsts_c_x_icrv,0.0786,0.2108,0.373,0.7093,,23662,0.0499,0.0492,-0.017,-0.017472749085483685,66.24,-0.0227,-0.6507,0.5105,not confirmed,,,,
M11,fsts_c_x_dai,0.0808,0.7888,0.102,0.9184,,23662,0.0499,0.0492,-0.017,-0.017472749085483685,66.24,-0.0227,-0.6507,0.5105,not confirmed,,,,
M11,fsts_c_x_dai_x_icrv,-0.0664,0.19,-0.35,0.7266,,23662,0.0499,0.0492,-0.017,-0.017472749085483685,66.24,-0.0227,-0.6507,0.5105,not confirmed,,,,
M11,mgr_experience,0.0188,0.002,9.545,0.0,***,23662,0.0499,0.0492,-0.017,-0.017472749085483685,66.24,-0.0227,-0.6507,0.5105,not confirmed,,,,
M11,mgr_female,0.2486,0.0547,4.542,0.0,***,23662,0.0499,0.0492,-0.017,-0.017472749085483685,66.24,-0.0227,-0.6507,0.5105,not confirmed,,,,
