thuyhuongctu-cell/my_thesis_phd_candidate_26/p7/replication/results_incl_japan/p7_coefs_all_models.csv
model,term,b,se,t,p,sig,n,r2,adj_r2,tp,tp_raw,tp_se,b1,b2,lm_p,shape,tci_mod_joint_F,tci_mod_joint_p,dai_mod_joint_F,dai_mod_joint_p
M0,Intercept,14.5617,0.0099,1475.62,0.0,***,78927,0.0,0.0,,,,,,,,,,,
M1,Intercept,14.5616,0.0099,1475.786,0.0,***,78927,0.0003,0.0003,,,,,,,,,,,
M1,fsts_c,0.1928,0.0444,4.344,0.0,***,78927,0.0003,0.0003,,,,,,,,,,,
M2,Intercept,14.5835,0.0126,1154.776,0.0,***,78927,0.0004,0.0003,55.8,0.5580447588981398,14.11,0.4333,-0.3882,0.0082,inverted-U,,,,
M2,fsts_c,0.4333,0.1168,3.711,0.0002,***,78927,0.0004,0.0003,55.8,0.5580447588981398,14.11,0.4333,-0.3882,0.0082,inverted-U,,,,
M2,fsts_c2,-0.3882,0.1619,-2.398,0.0165,*,78927,0.0004,0.0003,55.8,0.5580447588981398,14.11,0.4333,-0.3882,0.0082,inverted-U,,,,
M3,Intercept,14.0643,0.0317,443.877,0.0,***,77486,0.0055,0.0054,,,,-0.18770726566898807,0.3167160657968904,1.0,U or linear (b2>=0),,,,
M3,fsts_c,-0.1877,0.1191,-1.576,0.115,,77486,0.0055,0.0054,,,,-0.18770726566898807,0.3167160657968904,1.0,U or linear (b2>=0),,,,
M3,fsts_c2,0.3167,0.1631,1.941,0.0522,†,77486,0.0055,0.0054,,,,-0.18770726566898807,0.3167160657968904,1.0,U or linear (b2>=0),,,,
M3,female_owner,0.0878,0.0247,3.552,0.0004,***,77486,0.0055,0.0054,,,,-0.18770726566898807,0.3167160657968904,1.0,U or linear (b2>=0),,,,
M3,firm_age,0.0078,0.0006,12.619,0.0,***,77486,0.0055,0.0054,,,,-0.18770726566898807,0.3167160657968904,1.0,U or linear (b2>=0),,,,
M3,ln_size,0.0977,0.0079,12.384,0.0,***,77486,0.0055,0.0054,,,,-0.18770726566898807,0.3167160657968904,1.0,U or linear (b2>=0),,,,
M5,Intercept,12.3283,0.1721,71.626,0.0,***,77486,0.7527,0.7523,33.4,0.3335624497844199,3.57,0.5512,-0.8262,0.0,inverted-U,,,,
M5,C(cy_fe)[T.Afghanistan_2025],0.187,0.1894,0.987,0.3235,,77486,0.7527,0.7523,33.4,0.3335624497844199,3.57,0.5512,-0.8262,0.0,inverted-U,,,,
M5,C(cy_fe)[T.Armenia_2009],1.7428,0.2094,8.323,0.0,***,77486,0.7527,0.7523,33.4,0.3335624497844199,3.57,0.5512,-0.8262,0.0,inverted-U,,,,
M5,C(cy_fe)[T.Armenia_2013],2.6144,0.2413,10.834,0.0,***,77486,0.7527,0.7523,33.4,0.3335624497844199,3.57,0.5512,-0.8262,0.0,inverted-U,,,,
M5,C(cy_fe)[T.Armenia_2020],2.9674,0.1835,16.172,0.0,***,77486,0.7527,0.7523,33.4,0.3335624497844199,3.57,0.5512,-0.8262,0.0,inverted-U,,,,
M5,C(cy_fe)[T.Armenia_2024],3.0682,0.2015,15.23,0.0,***,77486,0.7527,0.7523,33.4,0.3335624497844199,3.57,0.5512,-0.8262,0.0,inverted-U,,,,
M5,C(cy_fe)[T.Azerbaijan_2009],-3.9105,0.1883,-20.77,0.0,***,77486,0.7527,0.7523,33.4,0.3335624497844199,3.57,0.5512,-0.8262,0.0,inverted-U,,,,
M5,C(cy_fe)[T.Azerbaijan_2013],-3.3508,0.1965,-17.05,0.0,***,77486,0.7527,0.7523,33.4,0.3335624497844199,3.57,0.5512,-0.8262,0.0,inverted-U,,,,
M5,C(cy_fe)[T.Azerbaijan_2019],-2.6953,0.2485,-10.847,0.0,***,77486,0.7527,0.7523,33.4,0.3335624497844199,3.57,0.5512,-0.8262,0.0,inverted-U,,,,
M5,C(cy_fe)[T.Azerbaijan_2024],-2.5864,0.2099,-12.321,0.0,***,77486,0.7527,0.7523,33.4,0.3335624497844199,3.57,0.5512,-0.8262,0.0,inverted-U,,,,
M5,C(cy_fe)[T.Bahrain_2024],-3.0742,0.2374,-12.948,0.0,***,77486,0.7527,0.7523,33.4,0.3335624497844199,3.57,0.5512,-0.8262,0.0,inverted-U,,,,
M5,C(cy_fe)[T.Bangladesh_2013],0.2929,0.1767,1.657,0.0974,†,77486,0.7527,0.7523,33.4,0.3335624497844199,3.57,0.5512,-0.8262,0.0,inverted-U,,,,
M5,C(cy_fe)[T.Bangladesh_2022],0.6386,0.1775,3.597,0.0003,***,77486,0.7527,0.7523,33.4,0.3335624497844199,3.57,0.5512,-0.8262,0.0,inverted-U,,,,
M5,C(cy_fe)[T.Bhutan_2009],0.2402,0.2028,1.185,0.2362,,77486,0.7527,0.7523,33.4,0.3335624497844199,3.57,0.5512,-0.8262,0.0,inverted-U,,,,
M5,C(cy_fe)[T.Bhutan_2015],0.7861,0.2046,3.843,0.0001,***,77486,0.7527,0.7523,33.4,0.3335624497844199,3.57,0.5512,-0.8262,0.0,inverted-U,,,,
M5,C(cy_fe)[T.Bhutan_2024],0.63,0.2115,2.979,0.0029,**,77486,0.7527,0.7523,33.4,0.3335624497844199,3.57,0.5512,-0.8262,0.0,inverted-U,,,,
M5,C(cy_fe)[T.Brunei_2025],-1.9959,0.2205,-9.051,0.0,***,77486,0.7527,0.7523,33.4,0.3335624497844199,3.57,0.5512,-0.8262,0.0,inverted-U,,,,
M5,C(cy_fe)[T.Cambodia_2016],4.7784,0.1955,24.448,0.0,***,77486,0.7527,0.7523,33.4,0.3335624497844199,3.57,0.5512,-0.8262,0.0,inverted-U,,,,
M5,C(cy_fe)[T.Cambodia_2023],4.4454,0.1817,24.47,0.0,***,77486,0.7527,0.7523,33.4,0.3335624497844199,3.57,0.5512,-0.8262,0.0,inverted-U,,,,
M5,C(cy_fe)[T.China_2024],0.1807,0.1752,1.031,0.3025,,77486,0.7527,0.7523,33.4,0.3335624497844199,3.57,0.5512,-0.8262,0.0,inverted-U,,,,
M5,C(cy_fe)[T.Comoros_2025],2.6362,0.2006,13.139,0.0,***,77486,0.7527,0.7523,33.4,0.3335624497844199,3.57,0.5512,-0.8262,0.0,inverted-U,,,,
M5,C(cy_fe)[T.Fiji_2009],-2.19,0.2328,-9.409,0.0,***,77486,0.7527,0.7523,33.4,0.3335624497844199,3.57,0.5512,-0.8262,0.0,inverted-U,,,,
M5,C(cy_fe)[T.Fiji_2025],-2.0326,0.2139,-9.504,0.0,***,77486,0.7527,0.7523,33.4,0.3335624497844199,3.57,0.5512,-0.8262,0.0,inverted-U,,,,
M5,C(cy_fe)[T.Georgia_2013],-2.8572,0.2052,-13.921,0.0,***,77486,0.7527,0.7523,33.4,0.3335624497844199,3.57,0.5512,-0.8262,0.0,inverted-U,,,,
M5,C(cy_fe)[T.Georgia_2019],-2.0312,0.1866,-10.883,0.0,***,77486,0.7527,0.7523,33.4,0.3335624497844199,3.57,0.5512,-0.8262,0.0,inverted-U,,,,
M5,C(cy_fe)[T.Georgia_2023],-1.9746,0.1858,-10.629,0.0,***,77486,0.7527,0.7523,33.4,0.3335624497844199,3.57,0.5512,-0.8262,0.0,inverted-U,,,,
M5,C(cy_fe)[T.HongKong_2023],1.1413,0.1931,5.911,0.0,***,77486,0.7527,0.7523,33.4,0.3335624497844199,3.57,0.5512,-0.8262,0.0,inverted-U,,,,
M5,C(cy_fe)[T.India_2014],0.9409,0.1724,5.459,0.0,***,77486,0.7527,0.7523,33.4,0.3335624497844199,3.57,0.5512,-0.8262,0.0,inverted-U,,,,
M5,C(cy_fe)[T.India_2022],1.4797,0.1723,8.588,0.0,***,77486,0.7527,0.7523,33.4,0.3335624497844199,3.57,0.5512,-0.8262,0.0,inverted-U,,,,
M5,C(cy_fe)[T.India_2025],2.0924,0.172,12.168,0.0,***,77486,0.7527,0.7523,33.4,0.3335624497844199,3.57,0.5512,-0.8262,0.0,inverted-U,,,,
M5,C(cy_fe)[T.Indonesia_2009],4.6999,0.1809,25.979,0.0,***,77486,0.7527,0.7523,33.4,0.3335624497844199,3.57,0.5512,-0.8262,0.0,inverted-U,,,,
M5,C(cy_fe)[T.Indonesia_2015],5.3062,0.184,28.831,0.0,***,77486,0.7527,0.7523,33.4,0.3335624497844199,3.57,0.5512,-0.8262,0.0,inverted-U,,,,
M5,C(cy_fe)[T.Indonesia_2023],5.2837,0.1775,29.771,0.0,***,77486,0.7527,0.7523,33.4,0.3335624497844199,3.57,0.5512,-0.8262,0.0,inverted-U,,,,
M5,C(cy_fe)[T.Iraq_2011],5.2866,0.178,29.708,0.0,***,77486,0.7527,0.7523,33.4,0.3335624497844199,3.57,0.5512,-0.8262,0.0,inverted-U,,,,
M5,C(cy_fe)[T.Iraq_2022],4.2868,0.1831,23.409,0.0,***,77486,0.7527,0.7523,33.4,0.3335624497844199,3.57,0.5512,-0.8262,0.0,inverted-U,,,,
M5,C(cy_fe)[T.Israel_2013],0.5229,0.1783,2.932,0.0034,**,77486,0.7527,0.7523,33.4,0.3335624497844199,3.57,0.5512,-0.8262,0.0,inverted-U,,,,
M5,C(cy_fe)[T.Israel_2024],0.3555,0.1787,1.99,0.0466,*,77486,0.7527,0.7523,33.4,0.3335624497844199,3.57,0.5512,-0.8262,0.0,inverted-U,,,,
M5,C(cy_fe)[T.Japan_2025],3.9638,0.1735,22.841,0.0,***,77486,0.7527,0.7523,33.4,0.3335624497844199,3.57,0.5512,-0.8262,0.0,inverted-U,,,,
M5,C(cy_fe)[T.Jordan_2013],-2.575,0.1844,-13.966,0.0,***,77486,0.7527,0.7523,33.4,0.3335624497844199,3.57,0.5512,-0.8262,0.0,inverted-U,,,,
M5,C(cy_fe)[T.Jordan_2019],-2.4577,0.2121,-11.585,0.0,***,77486,0.7527,0.7523,33.4,0.3335624497844199,3.57,0.5512,-0.8262,0.0,inverted-U,,,,
M5,C(cy_fe)[T.Jordan_2024],-2.2609,0.1825,-12.39,0.0,***,77486,0.7527,0.7523,33.4,0.3335624497844199,3.57,0.5512,-0.8262,0.0,inverted-U,,,,
M5,C(cy_fe)[T.Kazakhstan_2009],1.3538,0.1918,7.06,0.0,***,77486,0.7527,0.7523,33.4,0.3335624497844199,3.57,0.5512,-0.8262,0.0,inverted-U,,,,
M5,C(cy_fe)[T.Kazakhstan_2013],2.2927,0.182,12.598,0.0,***,77486,0.7527,0.7523,33.4,0.3335624497844199,3.57,0.5512,-0.8262,0.0,inverted-U,,,,
M5,C(cy_fe)[T.Kazakhstan_2019],2.4588,0.1781,13.806,0.0,***,77486,0.7527,0.7523,33.4,0.3335624497844199,3.57,0.5512,-0.8262,0.0,inverted-U,,,,
M5,C(cy_fe)[T.Kazakhstan_2024],4.3075,0.1792,24.042,0.0,***,77486,0.7527,0.7523,33.4,0.3335624497844199,3.57,0.5512,-0.8262,0.0,inverted-U,,,,
M5,C(cy_fe)[T.Kiribati_2025],-3.8118,0.2236,-17.046,0.0,***,77486,0.7527,0.7523,33.4,0.3335624497844199,3.57,0.5512,-0.8262,0.0,inverted-U,,,,
M5,C(cy_fe)[T.Korea_2024],6.4173,0.1748,36.722,0.0,***,77486,0.7527,0.7523,33.4,0.3335624497844199,3.57,0.5512,-0.8262,0.0,inverted-U,,,,
M5,C(cy_fe)[T.Kuwait_2025],-3.3062,0.1946,-16.99,0.0,***,77486,0.7527,0.7523,33.4,0.3335624497844199,3.57,0.5512,-0.8262,0.0,inverted-U,,,,
M5,C(cy_fe)[T.KyrgyzRepublic_2009],-0.7687,0.2163,-3.555,0.0004,***,77486,0.7527,0.7523,33.4,0.3335624497844199,3.57,0.5512,-0.8262,0.0,inverted-U,,,,
M5,C(cy_fe)[T.KyrgyzRepublic_2013],0.5718,0.1939,2.95,0.0032,**,77486,0.7527,0.7523,33.4,0.3335624497844199,3.57,0.5512,-0.8262,0.0,inverted-U,,,,
M5,C(cy_fe)[T.KyrgyzRepublic_2019],0.6212,0.2001,3.104,0.0019,**,77486,0.7527,0.7523,33.4,0.3335624497844199,3.57,0.5512,-0.8262,0.0,inverted-U,,,,
M5,C(cy_fe)[T.KyrgyzRepublic_2023],0.7974,0.1945,4.099,0.0,***,77486,0.7527,0.7523,33.4,0.3335624497844199,3.57,0.5512,-0.8262,0.0,inverted-U,,,,
M5,C(cy_fe)[T.Laos_2009],5.2731,0.1902,27.722,0.0,***,77486,0.7527,0.7523,33.4,0.3335624497844199,3.57,0.5512,-0.8262,0.0,inverted-U,,,,
M5,C(cy_fe)[T.Laos_2012],4.7775,0.2091,22.846,0.0,***,77486,0.7527,0.7523,33.4,0.3335624497844199,3.57,0.5512,-0.8262,0.0,inverted-U,,,,
M5,C(cy_fe)[T.Laos_2016],5.7496,0.1835,31.335,0.0,***,77486,0.7527,0.7523,33.4,0.3335624497844199,3.57,0.5512,-0.8262,0.0,inverted-U,,,,
M5,C(cy_fe)[T.Laos_2018],5.5149,0.1949,28.297,0.0,***,77486,0.7527,0.7523,33.4,0.3335624497844199,3.57,0.5512,-0.8262,0.0,inverted-U,,,,
M5,C(cy_fe)[T.Laos_2024],5.7305,0.1909,30.022,0.0,***,77486,0.7527,0.7523,33.4,0.3335624497844199,3.57,0.5512,-0.8262,0.0,inverted-U,,,,
M5,C(cy_fe)[T.Lebanon_2013],5.4201,0.1871,28.972,0.0,***,77486,0.7527,0.7523,33.4,0.3335624497844199,3.57,0.5512,-0.8262,0.0,inverted-U,,,,
M5,C(cy_fe)[T.Lebanon_2019],5.4173,0.1787,30.317,0.0,***,77486,0.7527,0.7523,33.4,0.3335624497844199,3.57,0.5512,-0.8262,0.0,inverted-U,,,,
M5,C(cy_fe)[T.Malaysia_2015],-2.5959,0.1853,-14.013,0.0,***,77486,0.7527,0.7523,33.4,0.3335624497844199,3.57,0.5512,-0.8262,0.0,inverted-U,,,,
M5,C(cy_fe)[T.Malaysia_2019],-0.9886,0.1767,-5.595,0.0,***,77486,0.7527,0.7523,33.4,0.3335624497844199,3.57,0.5512,-0.8262,0.0,inverted-U,,,,
M5,C(cy_fe)[T.Malaysia_2024],-1.2545,0.177,-7.089,0.0,***,77486,0.7527,0.7523,33.4,0.3335624497844199,3.57,0.5512,-0.8262,0.0,inverted-U,,,,
M5,C(cy_fe)[T.Maldives_2025],-0.0582,0.2292,-0.254,0.7994,,77486,0.7527,0.7523,33.4,0.3335624497844199,3.57,0.5512,-0.8262,0.0,inverted-U,,,,
M5,C(cy_fe)[T.Mongolia_2009],2.7032,0.1865,14.493,0.0,***,77486,0.7527,0.7523,33.4,0.3335624497844199,3.57,0.5512,-0.8262,0.0,inverted-U,,,,
M5,C(cy_fe)[T.Mongolia_2013],4.0684,0.181,22.472,0.0,***,77486,0.7527,0.7523,33.4,0.3335624497844199,3.57,0.5512,-0.8262,0.0,inverted-U,,,,
M5,C(cy_fe)[T.Mongolia_2019],4.3573,0.1837,23.719,0.0,***,77486,0.7527,0.7523,33.4,0.3335624497844199,3.57,0.5512,-0.8262,0.0,inverted-U,,,,
M5,C(cy_fe)[T.Myanmar_2014],2.7805,0.1825,15.239,0.0,***,77486,0.7527,0.7523,33.4,0.3335624497844199,3.57,0.5512,-0.8262,0.0,inverted-U,,,,
M5,C(cy_fe)[T.Myanmar_2016],3.4045,0.179,19.017,0.0,***,77486,0.7527,0.7523,33.4,0.3335624497844199,3.57,0.5512,-0.8262,0.0,inverted-U,,,,
M5,C(cy_fe)[T.Nepal_2009],0.0929,0.1884,0.493,0.6217,,77486,0.7527,0.7523,33.4,0.3335624497844199,3.57,0.5512,-0.8262,0.0,inverted-U,,,,
M5,C(cy_fe)[T.Nepal_2013],0.7256,0.1825,3.976,0.0001,***,77486,0.7527,0.7523,33.4,0.3335624497844199,3.57,0.5512,-0.8262,0.0,inverted-U,,,,
M5,C(cy_fe)[T.Nepal_2023],1.6826,0.1782,9.444,0.0,***,77486,0.7527,0.7523,33.4,0.3335624497844199,3.57,0.5512,-0.8262,0.0,inverted-U,,,,
M5,C(cy_fe)[T.Oman_2026],-4.2259,0.2221,-19.027,0.0,***,77486,0.7527,0.7523,33.4,0.3335624497844199,3.57,0.5512,-0.8262,0.0,inverted-U,,,,
M5,C(cy_fe)[T.Pakistan_2013],0.7293,0.1959,3.724,0.0002,***,77486,0.7527,0.7523,33.4,0.3335624497844199,3.57,0.5512,-0.8262,0.0,inverted-U,,,,
M5,C(cy_fe)[T.Pakistan_2022],2.0256,0.1752,11.563,0.0,***,77486,0.7527,0.7523,33.4,0.3335624497844199,3.57,0.5512,-0.8262,0.0,inverted-U,,,,
M5,C(cy_fe)[T.PapuaNewGuinea_2015],-1.0193,0.2214,-4.603,0.0,***,77486,0.7527,0.7523,33.4,0.3335624497844199,3.57,0.5512,-0.8262,0.0,inverted-U,,,,
M5,C(cy_fe)[T.PapuaNewGuinea_2024],-1.4373,0.262,-5.485,0.0,***,77486,0.7527,0.7523,33.4,0.3335624497844199,3.57,0.5512,-0.8262,0.0,inverted-U,,,,
M5,C(cy_fe)[T.Philippines_2009],0.8485,0.1812,4.683,0.0,***,77486,0.7527,0.7523,33.4,0.3335624497844199,3.57,0.5512,-0.8262,0.0,inverted-U,,,,
M5,C(cy_fe)[T.Philippines_2015],1.0847,0.1799,6.03,0.0,***,77486,0.7527,0.7523,33.4,0.3335624497844199,3.57,0.5512,-0.8262,0.0,inverted-U,,,,
M5,C(cy_fe)[T.Philippines_2023],0.171,0.1811,0.944,0.345,,77486,0.7527,0.7523,33.4,0.3335624497844199,3.57,0.5512,-0.8262,0.0,inverted-U,,,,
M5,C(cy_fe)[T.Qatar_2025],-0.5001,0.1725,-2.898,0.0038,**,77486,0.7527,0.7523,33.4,0.3335624497844199,3.57,0.5512,-0.8262,0.0,inverted-U,,,,
M5,C(cy_fe)[T.Samoa_2009],-1.4774,0.2788,-5.3,0.0,***,77486,0.7527,0.7523,33.4,0.3335624497844199,3.57,0.5512,-0.8262,0.0,inverted-U,,,,
M5,C(cy_fe)[T.Samoa_2023],-2.5559,0.2117,-12.071,0.0,***,77486,0.7527,0.7523,33.4,0.3335624497844199,3.57,0.5512,-0.8262,0.0,inverted-U,,,,
M5,C(cy_fe)[T.SaudiArabia_2025],-0.4097,0.1724,-2.376,0.0175,*,77486,0.7527,0.7523,33.4,0.3335624497844199,3.57,0.5512,-0.8262,0.0,inverted-U,,,,
M5,C(cy_fe)[T.Singapore_2023],-1.786,0.1792,-9.968,0.0,***,77486,0.7527,0.7523,33.4,0.3335624497844199,3.57,0.5512,-0.8262,0.0,inverted-U,,,,
M5,C(cy_fe)[T.SolomonIslands_2015],-0.0961,0.2062,-0.466,0.6412,,77486,0.7527,0.7523,33.4,0.3335624497844199,3.57,0.5512,-0.8262,0.0,inverted-U,,,,
M5,C(cy_fe)[T.SolomonIslands_2025],-1.0452,0.223,-4.686,0.0,***,77486,0.7527,0.7523,33.4,0.3335624497844199,3.57,0.5512,-0.8262,0.0,inverted-U,,,,
M5,C(cy_fe)[T.SriLanka_2011],0.3484,0.186,1.873,0.0611,†,77486,0.7527,0.7523,33.4,0.3335624497844199,3.57,0.5512,-0.8262,0.0,inverted-U,,,,
M5,C(cy_fe)[T.SriLanka_2025],1.6044,0.1807,8.878,0.0,***,77486,0.7527,0.7523,33.4,0.3335624497844199,3.57,0.5512,-0.8262,0.0,inverted-U,,,,
M5,C(cy_fe)[T.Taiwan_2024],2.2594,0.1783,12.669,0.0,***,77486,0.7527,0.7523,33.4,0.3335624497844199,3.57,0.5512,-0.8262,0.0,inverted-U,,,,
M5,C(cy_fe)[T.Tajikistan_2008],-4.118,0.1973,-20.872,0.0,***,77486,0.7527,0.7523,33.4,0.3335624497844199,3.57,0.5512,-0.8262,0.0,inverted-U,,,,
M5,C(cy_fe)[T.Tajikistan_2013],-3.0501,0.1989,-15.331,0.0,***,77486,0.7527,0.7523,33.4,0.3335624497844199,3.57,0.5512,-0.8262,0.0,inverted-U,,,,
M5,C(cy_fe)[T.Tajikistan_2019],-1.8988,0.1909,-9.946,0.0,***,77486,0.7527,0.7523,33.4,0.3335624497844199,3.57,0.5512,-0.8262,0.0,inverted-U,,,,
M5,C(cy_fe)[T.Tajikistan_2024],-1.3911,0.1935,-7.191,0.0,***,77486,0.7527,0.7523,33.4,0.3335624497844199,3.57,0.5512,-0.8262,0.0,inverted-U,,,,
M5,C(cy_fe)[T.Thailand_2016],0.6435,0.1818,3.539,0.0004,***,77486,0.7527,0.7523,33.4,0.3335624497844199,3.57,0.5512,-0.8262,0.0,inverted-U,,,,
M5,C(cy_fe)[T.Thailand_2025],0.9329,0.1798,5.189,0.0,***,77486,0.7527,0.7523,33.4,0.3335624497844199,3.57,0.5512,-0.8262,0.0,inverted-U,,,,
M5,C(cy_fe)[T.TimorLeste_2009],-3.7989,0.2948,-12.885,0.0,***,77486,0.7527,0.7523,33.4,0.3335624497844199,3.57,0.5512,-0.8262,0.0,inverted-U,,,,
M5,C(cy_fe)[T.TimorLeste_2015],-3.833,0.196,-19.553,0.0,***,77486,0.7527,0.7523,33.4,0.3335624497844199,3.57,0.5512,-0.8262,0.0,inverted-U,,,,
M5,C(cy_fe)[T.TimorLeste_2021],-3.7473,0.2059,-18.198,0.0,***,77486,0.7527,0.7523,33.4,0.3335624497844199,3.57,0.5512,-0.8262,0.0,inverted-U,,,,
M5,C(cy_fe)[T.Tonga_2009],-2.4119,0.2011,-11.994,0.0,***,77486,0.7527,0.7523,33.4,0.3335624497844199,3.57,0.5512,-0.8262,0.0,inverted-U,,,,
M5,C(cy_fe)[T.Tonga_2024],-2.8971,0.2082,-13.913,0.0,***,77486,0.7527,0.7523,33.4,0.3335624497844199,3.57,0.5512,-0.8262,0.0,inverted-U,,,,
M5,C(cy_fe)[T.Turkmenistan_2024],-0.8661,0.1941,-4.463,0.0,***,77486,0.7527,0.7523,33.4,0.3335624497844199,3.57,0.5512,-0.8262,0.0,inverted-U,,,,
M5,C(cy_fe)[T.Uzbekistan_2013],3.6081,0.203,17.774,0.0,***,77486,0.7527,0.7523,33.4,0.3335624497844199,3.57,0.5512,-0.8262,0.0,inverted-U,,,,
M5,C(cy_fe)[T.Uzbekistan_2019],4.8797,0.1851,26.362,0.0,***,77486,0.7527,0.7523,33.4,0.3335624497844199,3.57,0.5512,-0.8262,0.0,inverted-U,,,,
M5,C(cy_fe)[T.Uzbekistan_2024],5.0754,0.1875,27.065,0.0,***,77486,0.7527,0.7523,33.4,0.3335624497844199,3.57,0.5512,-0.8262,0.0,inverted-U,,,,
M5,C(cy_fe)[T.Vanuatu_2009],1.9708,0.2374,8.303,0.0,***,77486,0.7527,0.7523,33.4,0.3335624497844199,3.57,0.5512,-0.8262,0.0,inverted-U,,,,
M5,C(cy_fe)[T.Vanuatu_2023],1.38,0.2516,5.484,0.0,***,77486,0.7527,0.7523,33.4,0.3335624497844199,3.57,0.5512,-0.8262,0.0,inverted-U,,,,
M5,C(cy_fe)[T.Vietnam_2009],6.237,0.1809,34.479,0.0,***,77486,0.7527,0.7523,33.4,0.3335624497844199,3.57,0.5512,-0.8262,0.0,inverted-U,,,,
M5,C(cy_fe)[T.Vietnam_2015],7.1716,0.181,39.632,0.0,***,77486,0.7527,0.7523,33.4,0.3335624497844199,3.57,0.5512,-0.8262,0.0,inverted-U,,,,
M5,C(cy_fe)[T.Vietnam_2023],7.6081,0.1792,42.465,0.0,***,77486,0.7527,0.7523,33.4,0.3335624497844199,3.57,0.5512,-0.8262,0.0,inverted-U,,,,
M5,C(cy_fe)[T.Yemen_2010],1.4443,0.2038,7.087,0.0,***,77486,0.7527,0.7523,33.4,0.3335624497844199,3.57,0.5512,-0.8262,0.0,inverted-U,,,,
M5,C(cy_fe)[T.Yemen_2013],2.3371,0.2151,10.867,0.0,***,77486,0.7527,0.7523,33.4,0.3335624497844199,3.57,0.5512,-0.8262,0.0,inverted-U,,,,
M5,fsts_c,0.5512,0.0666,8.275,0.0,***,77486,0.7527,0.7523,33.4,0.3335624497844199,3.57,0.5512,-0.8262,0.0,inverted-U,,,,
M5,fsts_c2,-0.8262,0.0993,-8.321,0.0,***,77486,0.7527,0.7523,33.4,0.3335624497844199,3.57,0.5512,-0.8262,0.0,inverted-U,,,,
M5,female_owner,-0.0419,0.0136,-3.09,0.002,**,77486,0.7527,0.7523,33.4,0.3335624497844199,3.57,0.5512,-0.8262,0.0,inverted-U,,,,
M5,firm_age,0.0046,0.0004,12.919,0.0,***,77486,0.7527,0.7523,33.4,0.3335624497844199,3.57,0.5512,-0.8262,0.0,inverted-U,,,,
M5,ln_size,0.1199,0.0043,27.635,0.0,***,77486,0.7527,0.7523,33.4,0.3335624497844199,3.57,0.5512,-0.8262,0.0,inverted-U,,,,
M6,Intercept,14.2081,0.0329,431.266,0.0,***,77209,0.0089,0.0088,,,,-0.3441582639262181,0.4294116236097537,1.0,U or linear (b2>=0),,,,
M6,fsts_c,-0.3442,0.1201,-2.867,0.0041,**,77209,0.0089,0.0088,,,,-0.3441582639262181,0.4294116236097537,1.0,U or linear (b2>=0),,,,
M6,fsts_c2,0.4294,0.1638,2.621,0.0088,**,77209,0.0089,0.0088,,,,-0.3441582639262181,0.4294116236097537,1.0,U or linear (b2>=0),,,,
M6,tci_z,0.2147,0.0137,15.711,0.0,***,77209,0.0089,0.0088,,,,-0.3441582639262181,0.4294116236097537,1.0,U or linear (b2>=0),,,,
M6,female_owner,0.0778,0.0248,3.141,0.0017,**,77209,0.0089,0.0088,,,,-0.3441582639262181,0.4294116236097537,1.0,U or linear (b2>=0),,,,
M6,firm_age,0.0077,0.0006,12.397,0.0,***,77209,0.0089,0.0088,,,,-0.3441582639262181,0.4294116236097537,1.0,U or linear (b2>=0),,,,
M6,ln_size,0.0562,0.0082,6.827,0.0,***,77209,0.0089,0.0088,,,,-0.3441582639262181,0.4294116236097537,1.0,U or linear (b2>=0),,,,
M7,Intercept,14.2018,0.0331,429.677,0.0,***,77209,0.0092,0.0091,,,,-0.4049744591681096,0.5949606826239834,1.0,U or linear (b2>=0),13.2165,0.0,,
M7,fsts_c,-0.405,0.1213,-3.34,0.0008,***,77209,0.0092,0.0091,,,,-0.4049744591681096,0.5949606826239834,1.0,U or linear (b2>=0),13.2165,0.0,,
M7,fsts_c2,0.595,0.1665,3.572,0.0004,***,77209,0.0092,0.0091,,,,-0.4049744591681096,0.5949606826239834,1.0,U or linear (b2>=0),13.2165,0.0,,
M7,tci_z,0.2569,0.0156,16.462,0.0,***,77209,0.0092,0.0091,,,,-0.4049744591681096,0.5949606826239834,1.0,U or linear (b2>=0),13.2165,0.0,,
M7,fsts_c_x_tci,0.3644,0.1292,2.82,0.0048,**,77209,0.0092,0.0091,,,,-0.4049744591681096,0.5949606826239834,1.0,U or linear (b2>=0),13.2165,0.0,,
M7,fsts_c2_x_tci,-0.7261,0.1749,-4.153,0.0,***,77209,0.0092,0.0091,,,,-0.4049744591681096,0.5949606826239834,1.0,U or linear (b2>=0),13.2165,0.0,,
M7,female_owner,0.0739,0.0248,2.981,0.0029,**,77209,0.0092,0.0091,,,,-0.4049744591681096,0.5949606826239834,1.0,U or linear (b2>=0),13.2165,0.0,,
M7,firm_age,0.0076,0.0006,12.313,0.0,***,77209,0.0092,0.0091,,,,-0.4049744591681096,0.5949606826239834,1.0,U or linear (b2>=0),13.2165,0.0,,
M7,ln_size,0.0559,0.0082,6.794,0.0,***,77209,0.0092,0.0091,,,,-0.4049744591681096,0.5949606826239834,1.0,U or linear (b2>=0),13.2165,0.0,,
M8,Intercept,14.2663,0.0338,422.564,0.0,***,77124,0.011,0.0109,,,,-0.4787402560107845,0.7071782858784652,1.0,U or linear (b2>=0),,,3.9395,0.0195
M8,fsts_c,-0.4787,0.1227,-3.901,0.0001,***,77124,0.011,0.0109,,,,-0.4787402560107845,0.7071782858784652,1.0,U or linear (b2>=0),,,3.9395,0.0195
M8,fsts_c2,0.7072,0.1685,4.197,0.0,***,77124,0.011,0.0109,,,,-0.4787402560107845,0.7071782858784652,1.0,U or linear (b2>=0),,,3.9395,0.0195
M8,tci_z,0.2261,0.016,14.158,0.0,***,77124,0.011,0.0109,,,,-0.4787402560107845,0.7071782858784652,1.0,U or linear (b2>=0),,,3.9395,0.0195
M8,fsts_c_x_tci,0.4127,0.1342,3.074,0.0021,**,77124,0.011,0.0109,,,,-0.4787402560107845,0.7071782858784652,1.0,U or linear (b2>=0),,,3.9395,0.0195
M8,fsts_c2_x_tci,-0.7186,0.1819,-3.95,0.0001,***,77124,0.011,0.0109,,,,-0.4787402560107845,0.7071782858784652,1.0,U or linear (b2>=0),,,3.9395,0.0195
M8,dai_z,0.1455,0.0172,8.446,0.0,***,77124,0.011,0.0109,,,,-0.4787402560107845,0.7071782858784652,1.0,U or linear (b2>=0),,,3.9395,0.0195
M8,fsts_c_x_dai,-0.0068,0.148,-0.046,0.9633,,77124,0.011,0.0109,,,,-0.4787402560107845,0.7071782858784652,1.0,U or linear (b2>=0),,,3.9395,0.0195
M8,fsts_c2_x_dai,-0.1795,0.2019,-0.889,0.374,,77124,0.011,0.0109,,,,-0.4787402560107845,0.7071782858784652,1.0,U or linear (b2>=0),,,3.9395,0.0195
M8,female_owner,0.0616,0.0248,2.486,0.0129,*,77124,0.011,0.0109,,,,-0.4787402560107845,0.7071782858784652,1.0,U or linear (b2>=0),,,3.9395,0.0195
M8,firm_age,0.0076,0.0006,12.38,0.0,***,77124,0.011,0.0109,,,,-0.4787402560107845,0.7071782858784652,1.0,U or linear (b2>=0),,,3.9395,0.0195
M8,ln_size,0.0357,0.0085,4.223,0.0,***,77124,0.011,0.0109,,,,-0.4787402560107845,0.7071782858784652,1.0,U or linear (b2>=0),,,3.9395,0.0195
M9,Intercept,14.3769,0.0367,391.214,0.0,***,73948,0.0131,0.0129,,,,-0.42462145311512123,0.24570345813851976,1.0,U or linear (b2>=0),,,,
M9,fsts_c,-0.4246,0.1589,-2.673,0.0075,**,73948,0.0131,0.0129,,,,-0.42462145311512123,0.24570345813851976,1.0,U or linear (b2>=0),,,,
M9,fsts_c2,0.2457,0.1732,1.418,0.1561,,73948,0.0131,0.0129,,,,-0.42462145311512123,0.24570345813851976,1.0,U or linear (b2>=0),,,,
M9,tci_z,0.2228,0.0162,13.736,0.0,***,73948,0.0131,0.0129,,,,-0.42462145311512123,0.24570345813851976,1.0,U or linear (b2>=0),,,,
M9,fsts_c_x_tci,0.4403,0.1369,3.216,0.0013,**,73948,0.0131,0.0129,,,,-0.42462145311512123,0.24570345813851976,1.0,U or linear (b2>=0),,,,
M9,fsts_c2_x_tci,-0.7365,0.1848,-3.985,0.0001,***,73948,0.0131,0.0129,,,,-0.42462145311512123,0.24570345813851976,1.0,U or linear (b2>=0),,,,
M9,dai_z,0.141,0.0176,7.992,0.0,***,73948,0.0131,0.0129,,,,-0.42462145311512123,0.24570345813851976,1.0,U or linear (b2>=0),,,,
M9,fsts_c_x_dai,-0.091,0.1523,-0.597,0.5503,,73948,0.0131,0.0129,,,,-0.42462145311512123,0.24570345813851976,1.0,U or linear (b2>=0),,,,
M9,fsts_c2_x_dai,-0.063,0.2077,-0.303,0.7616,,73948,0.0131,0.0129,,,,-0.42462145311512123,0.24570345813851976,1.0,U or linear (b2>=0),,,,
M9,mgr_experience,-0.0084,0.0012,-6.831,0.0,***,73948,0.0131,0.0129,,,,-0.42462145311512123,0.24570345813851976,1.0,U or linear (b2>=0),,,,
M9,fsts_c_x_mgr,0.012,0.0043,2.779,0.0055,**,73948,0.0131,0.0129,,,,-0.42462145311512123,0.24570345813851976,1.0,U or linear (b2>=0),,,,
M9,mgr_female,0.2109,0.0362,5.82,0.0,***,73948,0.0131,0.0129,,,,-0.42462145311512123,0.24570345813851976,1.0,U or linear (b2>=0),,,,
M9,female_owner,0.0443,0.029,1.527,0.1268,,73948,0.0131,0.0129,,,,-0.42462145311512123,0.24570345813851976,1.0,U or linear (b2>=0),,,,
M9,firm_age,0.0104,0.0007,14.377,0.0,***,73948,0.0131,0.0129,,,,-0.42462145311512123,0.24570345813851976,1.0,U or linear (b2>=0),,,,
M9,ln_size,0.0339,0.0086,3.938,0.0001,***,73948,0.0131,0.0129,,,,-0.42462145311512123,0.24570345813851976,1.0,U or linear (b2>=0),,,,
M10,Intercept,14.3349,0.075,191.185,0.0,***,74398,0.0111,0.011,34.4,0.34350068779095366,4.38,2.7973,-4.0718,0.0,inverted-U,,,,
M10,fsts_c,2.7973,0.3862,7.244,0.0,***,74398,0.0111,0.011,34.4,0.34350068779095366,4.38,2.7973,-4.0718,0.0,inverted-U,,,,
M10,fsts_c2,-4.0718,0.6524,-6.241,0.0,***,74398,0.0111,0.011,34.4,0.34350068779095366,4.38,2.7973,-4.0718,0.0,inverted-U,,,,
M10,tci_z,0.1917,0.014,13.677,0.0,***,74398,0.0111,0.011,34.4,0.34350068779095366,4.38,2.7973,-4.0718,0.0,inverted-U,,,,
M10,dai_z,0.1383,0.0124,11.128,0.0,***,74398,0.0111,0.011,34.4,0.34350068779095366,4.38,2.7973,-4.0718,0.0,inverted-U,,,,
M10,icrv_group,0.0059,0.0171,0.342,0.7326,,74398,0.0111,0.011,34.4,0.34350068779095366,4.38,2.7973,-4.0718,0.0,inverted-U,,,,
M10,fsts_c_x_icrv,-0.8659,0.1035,-8.363,0.0,***,74398,0.0111,0.011,34.4,0.34350068779095366,4.38,2.7973,-4.0718,0.0,inverted-U,,,,
M10,fsts_c2_x_icrv,1.2229,0.1701,7.19,0.0,***,74398,0.0111,0.011,34.4,0.34350068779095366,4.38,2.7973,-4.0718,0.0,inverted-U,,,,
M10,female_owner,0.0168,0.0254,0.662,0.5082,,74398,0.0111,0.011,34.4,0.34350068779095366,4.38,2.7973,-4.0718,0.0,inverted-U,,,,
M10,firm_age,-0.0011,0.0007,-1.63,0.1032,,74398,0.0111,0.011,34.4,0.34350068779095366,4.38,2.7973,-4.0718,0.0,inverted-U,,,,
M10,ln_size,0.0575,0.0086,6.653,0.0,***,74398,0.0111,0.011,34.4,0.34350068779095366,4.38,2.7973,-4.0718,0.0,inverted-U,,,,
M11,Intercept,14.0187,0.0692,202.644,0.0,***,71306,0.0141,0.0139,,,,0.3661876720775407,0.20695966236300567,1.0,U or linear (b2>=0),,,,
M11,fsts_c,0.3662,0.2779,1.318,0.1876,,71306,0.0141,0.0139,,,,0.3661876720775407,0.20695966236300567,1.0,U or linear (b2>=0),,,,
M11,fsts_c2,0.207,0.1722,1.202,0.2295,,71306,0.0141,0.0139,,,,0.3661876720775407,0.20695966236300567,1.0,U or linear (b2>=0),,,,
M11,tci_z,0.1885,0.0143,13.187,0.0,***,71306,0.0141,0.0139,,,,0.3661876720775407,0.20695966236300567,1.0,U or linear (b2>=0),,,,
M11,dai_z,-0.0567,0.0664,-0.854,0.393,,71306,0.0141,0.0139,,,,0.3661876720775407,0.20695966236300567,1.0,U or linear (b2>=0),,,,
M11,icrv_group,0.1137,0.0139,8.172,0.0,***,71306,0.0141,0.0139,,,,0.3661876720775407,0.20695966236300567,1.0,U or linear (b2>=0),,,,
M11,fsts_c_x_icrv,-0.2131,0.0566,-3.763,0.0002,***,71306,0.0141,0.0139,,,,0.3661876720775407,0.20695966236300567,1.0,U or linear (b2>=0),,,,
M11,fsts_c_x_dai,-0.5343,0.2614,-2.044,0.041,*,71306,0.0141,0.0139,,,,0.3661876720775407,0.20695966236300567,1.0,U or linear (b2>=0),,,,
M11,dai_x_icrv,0.0483,0.0166,2.912,0.0036,**,71306,0.0141,0.0139,,,,0.3661876720775407,0.20695966236300567,1.0,U or linear (b2>=0),,,,
M11,fsts_c_x_dai_x_icrv,0.104,0.0648,1.605,0.1086,,71306,0.0141,0.0139,,,,0.3661876720775407,0.20695966236300567,1.0,U or linear (b2>=0),,,,
M11,mgr_experience,-0.0097,0.0016,-6.103,0.0,***,71306,0.0141,0.0139,,,,0.3661876720775407,0.20695966236300567,1.0,U or linear (b2>=0),,,,
M11,fsts_c_x_mgr,0.0131,0.0052,2.531,0.0114,*,71306,0.0141,0.0139,,,,0.3661876720775407,0.20695966236300567,1.0,U or linear (b2>=0),,,,
M11,mgr_female,0.2881,0.0369,7.805,0.0,***,71306,0.0141,0.0139,,,,0.3661876720775407,0.20695966236300567,1.0,U or linear (b2>=0),,,,
M11,female_owner,-0.0309,0.03,-1.03,0.3029,,71306,0.0141,0.0139,,,,0.3661876720775407,0.20695966236300567,1.0,U or linear (b2>=0),,,,
M11,firm_age,0.0023,0.0009,2.61,0.009,**,71306,0.0141,0.0139,,,,0.3661876720775407,0.20695966236300567,1.0,U or linear (b2>=0),,,,
M11,ln_size,0.0616,0.0088,7.025,0.0,***,71306,0.0141,0.0139,,,,0.3661876720775407,0.20695966236300567,1.0,U or linear (b2>=0),,,,
