thuyhuongctu-cell/my_thesis_phd_candidate_26/p7/replication/results_incl_japan/p7_summary_focal.csv
model,term,b,se,t,p,sig,n,r2,adj_r2,tp,tp_raw,tp_se,b1,b2,lm_p,shape,tci_mod_joint_F,tci_mod_joint_p,dai_mod_joint_F,dai_mod_joint_p
M0,Intercept,14.5617,0.0099,1475.62,0.0,***,78927,0.0,0.0,,,,,,,,,,,
M1,Intercept,14.5616,0.0099,1475.786,0.0,***,78927,0.0003,0.0003,,,,,,,,,,,
M1,fsts_c,0.1928,0.0444,4.344,0.0,***,78927,0.0003,0.0003,,,,,,,,,,,
M2,Intercept,14.5835,0.0126,1154.776,0.0,***,78927,0.0004,0.0003,55.8,0.5580447588981398,14.11,0.4333,-0.3882,0.0082,inverted-U,,,,
M2,fsts_c,0.4333,0.1168,3.711,0.0002,***,78927,0.0004,0.0003,55.8,0.5580447588981398,14.11,0.4333,-0.3882,0.0082,inverted-U,,,,
M2,fsts_c2,-0.3882,0.1619,-2.398,0.0165,*,78927,0.0004,0.0003,55.8,0.5580447588981398,14.11,0.4333,-0.3882,0.0082,inverted-U,,,,
M3,Intercept,13.4963,0.088,153.415,0.0,***,31940,0.0101,0.0099,,,,-0.7676773545697884,1.4383200052412182,1.0,U or linear (b2>=0),,,,
M3,fsts_c,-0.7677,0.1979,-3.88,0.0001,***,31940,0.0101,0.0099,,,,-0.7676773545697884,1.4383200052412182,1.0,U or linear (b2>=0),,,,
M3,fsts_c2,1.4383,0.2742,5.245,0.0,***,31940,0.0101,0.0099,,,,-0.7676773545697884,1.4383200052412182,1.0,U or linear (b2>=0),,,,
M5,Intercept,12.9129,0.1729,74.667,0.0,***,31940,0.7432,0.7426,39.6,0.3962420947325551,6.08,0.6461,-0.8152,0.0,inverted-U,,,,
M5,fsts_c,0.6461,0.1113,5.805,0.0,***,31940,0.7432,0.7426,39.6,0.3962420947325551,6.08,0.6461,-0.8152,0.0,inverted-U,,,,
M5,fsts_c2,-0.8152,0.1677,-4.86,0.0,***,31940,0.7432,0.7426,39.6,0.3962420947325551,6.08,0.6461,-0.8152,0.0,inverted-U,,,,
M6,Intercept,13.652,0.0879,155.234,0.0,***,31744,0.0177,0.0174,,,,-0.9503498441740915,1.586723399544077,1.0,U or linear (b2>=0),,,,
M6,fsts_c,-0.9503,0.1994,-4.767,0.0,***,31744,0.0177,0.0174,,,,-0.9503498441740915,1.586723399544077,1.0,U or linear (b2>=0),,,,
M6,fsts_c2,1.5867,0.2754,5.761,0.0,***,31744,0.0177,0.0174,,,,-0.9503498441740915,1.586723399544077,1.0,U or linear (b2>=0),,,,
M6,tci_z,0.34,0.023,14.773,0.0,***,31744,0.0177,0.0174,,,,-0.9503498441740915,1.586723399544077,1.0,U or linear (b2>=0),,,,
M7,Intercept,13.645,0.0879,155.226,0.0,***,31744,0.0193,0.019,,,,-1.0658437975450257,1.9308348021463586,1.0,U or linear (b2>=0),23.7539,0.0,,
M7,fsts_c,-1.0658,0.1995,-5.342,0.0,***,31744,0.0193,0.019,,,,-1.0658437975450257,1.9308348021463586,1.0,U or linear (b2>=0),23.7539,0.0,,
M7,fsts_c2,1.9308,0.2777,6.952,0.0,***,31744,0.0193,0.019,,,,-1.0658437975450257,1.9308348021463586,1.0,U or linear (b2>=0),23.7539,0.0,,
M7,tci_z,0.4597,0.0308,14.925,0.0,***,31744,0.0193,0.019,,,,-1.0658437975450257,1.9308348021463586,1.0,U or linear (b2>=0),23.7539,0.0,,
M7,fsts_c_x_tci,0.8034,0.2398,3.35,0.0008,***,31744,0.0193,0.019,,,,-1.0658437975450257,1.9308348021463586,1.0,U or linear (b2>=0),23.7539,0.0,,
M7,fsts_c2_x_tci,-1.6334,0.329,-4.965,0.0,***,31744,0.0193,0.019,,,,-1.0658437975450257,1.9308348021463586,1.0,U or linear (b2>=0),23.7539,0.0,,
M8,Intercept,13.7344,0.0889,154.426,0.0,***,31668,0.0223,0.022,,,,-1.2291690404521582,2.1672385105298,1.0,U or linear (b2>=0),,,2.063,0.1271
M8,fsts_c,-1.2292,0.2026,-6.066,0.0,***,31668,0.0223,0.022,,,,-1.2291690404521582,2.1672385105298,1.0,U or linear (b2>=0),,,2.063,0.1271
M8,fsts_c2,2.1672,0.2834,7.647,0.0,***,31668,0.0223,0.022,,,,-1.2291690404521582,2.1672385105298,1.0,U or linear (b2>=0),,,2.063,0.1271
M8,tci_z,0.3957,0.0319,12.39,0.0,***,31668,0.0223,0.022,,,,-1.2291690404521582,2.1672385105298,1.0,U or linear (b2>=0),,,2.063,0.1271
M8,fsts_c_x_tci,0.7699,0.2527,3.047,0.0023,**,31668,0.0223,0.022,,,,-1.2291690404521582,2.1672385105298,1.0,U or linear (b2>=0),,,2.063,0.1271
M8,fsts_c2_x_tci,-1.4951,0.3454,-4.329,0.0,***,31668,0.0223,0.022,,,,-1.2291690404521582,2.1672385105298,1.0,U or linear (b2>=0),,,2.063,0.1271
M8,dai_z,0.2176,0.0275,7.902,0.0,***,31668,0.0223,0.022,,,,-1.2291690404521582,2.1672385105298,1.0,U or linear (b2>=0),,,2.063,0.1271
M8,fsts_c_x_dai,0.2044,0.2157,0.947,0.3435,,31668,0.0223,0.022,,,,-1.2291690404521582,2.1672385105298,1.0,U or linear (b2>=0),,,2.063,0.1271
M8,fsts_c2_x_dai,-0.4399,0.3001,-1.466,0.1427,,31668,0.0223,0.022,,,,-1.2291690404521582,2.1672385105298,1.0,U or linear (b2>=0),,,2.063,0.1271
M9,Intercept,13.8002,0.1012,136.388,0.0,***,29191,0.0253,0.0248,,,,-0.1299510626420709,0.875012426805419,1.0,U or linear (b2>=0),,,,
M9,fsts_c,-0.13,0.2904,-0.447,0.6545,,29191,0.0253,0.0248,,,,-0.1299510626420709,0.875012426805419,1.0,U or linear (b2>=0),,,,
M9,fsts_c2,0.875,0.2994,2.922,0.0035,**,29191,0.0253,0.0248,,,,-0.1299510626420709,0.875012426805419,1.0,U or linear (b2>=0),,,,
M9,tci_z,0.4037,0.0337,11.965,0.0,***,29191,0.0253,0.0248,,,,-0.1299510626420709,0.875012426805419,1.0,U or linear (b2>=0),,,,
M9,fsts_c_x_tci,0.8513,0.2673,3.185,0.0014,**,29191,0.0253,0.0248,,,,-0.1299510626420709,0.875012426805419,1.0,U or linear (b2>=0),,,,
M9,fsts_c2_x_tci,-1.5853,0.3645,-4.349,0.0,***,29191,0.0253,0.0248,,,,-0.1299510626420709,0.875012426805419,1.0,U or linear (b2>=0),,,,
M9,dai_z,0.199,0.0291,6.849,0.0,***,29191,0.0253,0.0248,,,,-0.1299510626420709,0.875012426805419,1.0,U or linear (b2>=0),,,,
M9,fsts_c_x_dai,-0.0047,0.227,-0.021,0.9835,,29191,0.0253,0.0248,,,,-0.1299510626420709,0.875012426805419,1.0,U or linear (b2>=0),,,,
M9,fsts_c2_x_dai,-0.1192,0.3157,-0.377,0.7058,,29191,0.0253,0.0248,,,,-0.1299510626420709,0.875012426805419,1.0,U or linear (b2>=0),,,,
M9,mgr_experience,0.0084,0.0036,2.33,0.0198,*,29191,0.0253,0.0248,,,,-0.1299510626420709,0.875012426805419,1.0,U or linear (b2>=0),,,,
M9,mgr_female,0.2233,0.0553,4.04,0.0001,***,29191,0.0253,0.0248,,,,-0.1299510626420709,0.875012426805419,1.0,U or linear (b2>=0),,,,
M10,Intercept,12.8937,0.1583,81.444,0.0,***,31170,0.0253,0.025,22.3,0.22275531379643768,41.63,0.5868,-1.3171,0.3161,not confirmed,,,,
M10,fsts_c,0.5868,1.2263,0.479,0.6323,,31170,0.0253,0.025,22.3,0.22275531379643768,41.63,0.5868,-1.3171,0.3161,not confirmed,,,,
M10,fsts_c2,-1.3171,1.7586,-0.749,0.4539,,31170,0.0253,0.025,22.3,0.22275531379643768,41.63,0.5868,-1.3171,0.3161,not confirmed,,,,
M10,tci_z,0.2768,0.0234,11.813,0.0,***,31170,0.0253,0.025,22.3,0.22275531379643768,41.63,0.5868,-1.3171,0.3161,not confirmed,,,,
M10,dai_z,0.1798,0.0191,9.432,0.0,***,31170,0.0253,0.025,22.3,0.22275531379643768,41.63,0.5868,-1.3171,0.3161,not confirmed,,,,
M10,icrv_group,0.2486,0.0349,7.117,0.0,***,31170,0.0253,0.025,22.3,0.22275531379643768,41.63,0.5868,-1.3171,0.3161,not confirmed,,,,
M10,fsts_c_x_icrv,-0.2503,0.3037,-0.824,0.4099,,31170,0.0253,0.025,22.3,0.22275531379643768,41.63,0.5868,-1.3171,0.3161,not confirmed,,,,
M11,Intercept,11.9649,0.1354,88.347,0.0,***,28713,0.0392,0.0387,57.2,0.5716751357825315,46.12,0.6971,-0.6097,0.1059,not confirmed,,,,
M11,fsts_c,0.6971,0.5584,1.248,0.2119,,28713,0.0392,0.0387,57.2,0.5716751357825315,46.12,0.6971,-0.6097,0.1059,not confirmed,,,,
M11,fsts_c2,-0.6097,0.2927,-2.083,0.0373,*,28713,0.0392,0.0387,57.2,0.5716751357825315,46.12,0.6971,-0.6097,0.1059,not confirmed,,,,
M11,tci_z,0.2702,0.0246,10.991,0.0,***,28713,0.0392,0.0387,57.2,0.5716751357825315,46.12,0.6971,-0.6097,0.1059,not confirmed,,,,
M11,dai_z,-0.0258,0.1033,-0.25,0.8029,,28713,0.0392,0.0387,57.2,0.5716751357825315,46.12,0.6971,-0.6097,0.1059,not confirmed,,,,
M11,icrv_group,0.4871,0.0252,19.337,0.0,***,28713,0.0392,0.0387,57.2,0.5716751357825315,46.12,0.6971,-0.6097,0.1059,not confirmed,,,,
M11,fsts_c_x_icrv,0.0158,0.1226,0.129,0.8973,,28713,0.0392,0.0387,57.2,0.5716751357825315,46.12,0.6971,-0.6097,0.1059,not confirmed,,,,
M11,fsts_c_x_dai,-0.7734,0.536,-1.443,0.149,,28713,0.0392,0.0387,57.2,0.5716751357825315,46.12,0.6971,-0.6097,0.1059,not confirmed,,,,
M11,fsts_c_x_dai_x_icrv,0.1559,0.1281,1.217,0.2236,,28713,0.0392,0.0387,57.2,0.5716751357825315,46.12,0.6971,-0.6097,0.1059,not confirmed,,,,
M11,mgr_experience,0.0095,0.0036,2.628,0.0086,**,28713,0.0392,0.0387,57.2,0.5716751357825315,46.12,0.6971,-0.6097,0.1059,not confirmed,,,,
M11,mgr_female,0.2589,0.0542,4.774,0.0,***,28713,0.0392,0.0387,57.2,0.5716751357825315,46.12,0.6971,-0.6097,0.1059,not confirmed,,,,
