thuyhuongctu-cell/my_thesis_phd_candidate_26/p7/replication/results/p7_coefs_all_models.csv
model,term,b,se,t,p,sig,n,r2,adj_r2,tp,tp_raw,tp_se,b1,b2,lm_p,shape,tci_mod_joint_F,tci_mod_joint_p,dai_mod_joint_F,dai_mod_joint_p
M0,Intercept,14.6358,0.009,1623.524,0.0,***,82302,-0.0,-0.0,,,,,,,,,,,
M1,Intercept,14.6355,0.009,1623.719,0.0,***,82302,0.0004,0.0004,,,,,,,,,,,
M1,fsts_c,0.2018,0.0378,5.336,0.0,***,82302,0.0004,0.0004,,,,,,,,,,,
M2,Intercept,14.7361,0.0119,1235.289,0.0,***,82302,0.0023,0.0023,37.1,0.37126920469917435,2.74,1.2106,-1.6304,0.0,inverted-U,,,,
M2,fsts_c,1.2106,0.1005,12.044,0.0,***,82302,0.0023,0.0023,37.1,0.37126920469917435,2.74,1.2106,-1.6304,0.0,inverted-U,,,,
M2,fsts_c2,-1.6304,0.1408,-11.583,0.0,***,82302,0.0023,0.0023,37.1,0.37126920469917435,2.74,1.2106,-1.6304,0.0,inverted-U,,,,
M3,Intercept,14.421,0.0764,188.776,0.0,***,36772,0.0169,0.0168,34.1,0.34126321981308516,1.94,2.4306,-3.5611,0.0,inverted-U,,,,
M3,fsts_c,2.4306,0.1568,15.506,0.0,***,36772,0.0169,0.0168,34.1,0.34126321981308516,1.94,2.4306,-3.5611,0.0,inverted-U,,,,
M3,fsts_c2,-3.5611,0.2233,-15.947,0.0,***,36772,0.0169,0.0168,34.1,0.34126321981308516,1.94,2.4306,-3.5611,0.0,inverted-U,,,,
M3,female_owner,0.0213,0.0294,0.722,0.4702,,36772,0.0169,0.0168,34.1,0.34126321981308516,1.94,2.4306,-3.5611,0.0,inverted-U,,,,
M3,foreign_own_pct,0.6279,0.049,12.805,0.0,***,36772,0.0169,0.0168,34.1,0.34126321981308516,1.94,2.4306,-3.5611,0.0,inverted-U,,,,
M3,firm_age,-0.0093,0.001,-9.003,0.0,***,36772,0.0169,0.0168,34.1,0.34126321981308516,1.94,2.4306,-3.5611,0.0,inverted-U,,,,
M3,ln_size,0.0123,0.0118,1.042,0.2975,,36772,0.0169,0.0168,34.1,0.34126321981308516,1.94,2.4306,-3.5611,0.0,inverted-U,,,,
M5,Intercept,12.8234,0.1743,73.588,0.0,***,36772,0.6711,0.6706,39.5,0.39476108523051423,5.3,0.6634,-0.8402,0.0,inverted-U,,,,
M5,C(cy_fe)[T.Bangladesh_2013],0.325,0.1762,1.844,0.0651,†,36772,0.6711,0.6706,39.5,0.39476108523051423,5.3,0.6634,-0.8402,0.0,inverted-U,,,,
M5,C(cy_fe)[T.Bhutan_2009],0.1976,0.2016,0.981,0.3268,,36772,0.6711,0.6706,39.5,0.39476108523051423,5.3,0.6634,-0.8402,0.0,inverted-U,,,,
M5,C(cy_fe)[T.Bhutan_2015],0.7415,0.2037,3.641,0.0003,***,36772,0.6711,0.6706,39.5,0.39476108523051423,5.3,0.6634,-0.8402,0.0,inverted-U,,,,
M5,C(cy_fe)[T.Cambodia_2016],4.8409,0.1947,24.858,0.0,***,36772,0.6711,0.6706,39.5,0.39476108523051423,5.3,0.6634,-0.8402,0.0,inverted-U,,,,
M5,C(cy_fe)[T.Fiji_2009],-2.2159,0.233,-9.511,0.0,***,36772,0.6711,0.6706,39.5,0.39476108523051423,5.3,0.6634,-0.8402,0.0,inverted-U,,,,
M5,C(cy_fe)[T.India_2014],0.9433,0.171,5.516,0.0,***,36772,0.6711,0.6706,39.5,0.39476108523051423,5.3,0.6634,-0.8402,0.0,inverted-U,,,,
M5,C(cy_fe)[T.Indonesia_2009],4.8271,0.1798,26.841,0.0,***,36772,0.6711,0.6706,39.5,0.39476108523051423,5.3,0.6634,-0.8402,0.0,inverted-U,,,,
M5,C(cy_fe)[T.Indonesia_2015],5.4114,0.1831,29.55,0.0,***,36772,0.6711,0.6706,39.5,0.39476108523051423,5.3,0.6634,-0.8402,0.0,inverted-U,,,,
M5,C(cy_fe)[T.Iraq_2011],5.3728,0.1767,30.41,0.0,***,36772,0.6711,0.6706,39.5,0.39476108523051423,5.3,0.6634,-0.8402,0.0,inverted-U,,,,
M5,C(cy_fe)[T.Israel_2013],0.5132,0.177,2.899,0.0037,**,36772,0.6711,0.6706,39.5,0.39476108523051423,5.3,0.6634,-0.8402,0.0,inverted-U,,,,
M5,C(cy_fe)[T.Jordan_2013],-2.5885,0.1834,-14.11,0.0,***,36772,0.6711,0.6706,39.5,0.39476108523051423,5.3,0.6634,-0.8402,0.0,inverted-U,,,,
M5,C(cy_fe)[T.Jordan_2019],-2.509,0.2109,-11.896,0.0,***,36772,0.6711,0.6706,39.5,0.39476108523051423,5.3,0.6634,-0.8402,0.0,inverted-U,,,,
M5,C(cy_fe)[T.Kazakhstan_2009],1.3543,0.1907,7.104,0.0,***,36772,0.6711,0.6706,39.5,0.39476108523051423,5.3,0.6634,-0.8402,0.0,inverted-U,,,,
M5,C(cy_fe)[T.Kazakhstan_2013],2.2744,0.1805,12.6,0.0,***,36772,0.6711,0.6706,39.5,0.39476108523051423,5.3,0.6634,-0.8402,0.0,inverted-U,,,,
M5,C(cy_fe)[T.Kazakhstan_2019],2.4332,0.1767,13.771,0.0,***,36772,0.6711,0.6706,39.5,0.39476108523051423,5.3,0.6634,-0.8402,0.0,inverted-U,,,,
M5,C(cy_fe)[T.KyrgyzRepublic_2009],-0.7984,0.2153,-3.708,0.0002,***,36772,0.6711,0.6706,39.5,0.39476108523051423,5.3,0.6634,-0.8402,0.0,inverted-U,,,,
M5,C(cy_fe)[T.KyrgyzRepublic_2013],0.5505,0.1932,2.849,0.0044,**,36772,0.6711,0.6706,39.5,0.39476108523051423,5.3,0.6634,-0.8402,0.0,inverted-U,,,,
M5,C(cy_fe)[T.KyrgyzRepublic_2019],0.5843,0.1992,2.933,0.0034,**,36772,0.6711,0.6706,39.5,0.39476108523051423,5.3,0.6634,-0.8402,0.0,inverted-U,,,,
M5,C(cy_fe)[T.Laos_2016],5.7131,0.182,31.382,0.0,***,36772,0.6711,0.6706,39.5,0.39476108523051423,5.3,0.6634,-0.8402,0.0,inverted-U,,,,
M5,C(cy_fe)[T.Laos_2018],5.5123,0.1935,28.481,0.0,***,36772,0.6711,0.6706,39.5,0.39476108523051423,5.3,0.6634,-0.8402,0.0,inverted-U,,,,
M5,C(cy_fe)[T.Lebanon_2013],5.4288,0.186,29.186,0.0,***,36772,0.6711,0.6706,39.5,0.39476108523051423,5.3,0.6634,-0.8402,0.0,inverted-U,,,,
M5,C(cy_fe)[T.Lebanon_2019],5.4246,0.1775,30.563,0.0,***,36772,0.6711,0.6706,39.5,0.39476108523051423,5.3,0.6634,-0.8402,0.0,inverted-U,,,,
M5,C(cy_fe)[T.Malaysia_2015],-2.5318,0.1848,-13.702,0.0,***,36772,0.6711,0.6706,39.5,0.39476108523051423,5.3,0.6634,-0.8402,0.0,inverted-U,,,,
M5,C(cy_fe)[T.Mongolia_2009],2.7186,0.1854,14.665,0.0,***,36772,0.6711,0.6706,39.5,0.39476108523051423,5.3,0.6634,-0.8402,0.0,inverted-U,,,,
M5,C(cy_fe)[T.Mongolia_2013],4.0618,0.1798,22.589,0.0,***,36772,0.6711,0.6706,39.5,0.39476108523051423,5.3,0.6634,-0.8402,0.0,inverted-U,,,,
M5,C(cy_fe)[T.Mongolia_2019],4.3286,0.1827,23.697,0.0,***,36772,0.6711,0.6706,39.5,0.39476108523051423,5.3,0.6634,-0.8402,0.0,inverted-U,,,,
M5,C(cy_fe)[T.Mongolia_panel_2009],2.7186,0.1782,15.256,0.0,***,36772,0.6711,0.6706,39.5,0.39476108523051423,5.3,0.6634,-0.8402,0.0,inverted-U,,,,
M5,C(cy_fe)[T.Mongolia_panel_2013],4.0618,0.1752,23.186,0.0,***,36772,0.6711,0.6706,39.5,0.39476108523051423,5.3,0.6634,-0.8402,0.0,inverted-U,,,,
M5,C(cy_fe)[T.Mongolia_panel_2019],4.3286,0.1767,24.499,0.0,***,36772,0.6711,0.6706,39.5,0.39476108523051423,5.3,0.6634,-0.8402,0.0,inverted-U,,,,
M5,C(cy_fe)[T.Myanmar_2014],2.8035,0.1813,15.465,0.0,***,36772,0.6711,0.6706,39.5,0.39476108523051423,5.3,0.6634,-0.8402,0.0,inverted-U,,,,
M5,C(cy_fe)[T.Myanmar_2016],3.4581,0.1779,19.433,0.0,***,36772,0.6711,0.6706,39.5,0.39476108523051423,5.3,0.6634,-0.8402,0.0,inverted-U,,,,
M5,C(cy_fe)[T.Pakistan_2013],0.7745,0.1949,3.975,0.0001,***,36772,0.6711,0.6706,39.5,0.39476108523051423,5.3,0.6634,-0.8402,0.0,inverted-U,,,,
M5,C(cy_fe)[T.PapuaNewGuinea_2015],-1.0256,0.2207,-4.647,0.0,***,36772,0.6711,0.6706,39.5,0.39476108523051423,5.3,0.6634,-0.8402,0.0,inverted-U,,,,
M5,C(cy_fe)[T.Philippines_2009],0.8295,0.1763,4.704,0.0,***,36772,0.6711,0.6706,39.5,0.39476108523051423,5.3,0.6634,-0.8402,0.0,inverted-U,,,,
M5,C(cy_fe)[T.Philippines_2015],1.0783,0.1757,6.137,0.0,***,36772,0.6711,0.6706,39.5,0.39476108523051423,5.3,0.6634,-0.8402,0.0,inverted-U,,,,
M5,C(cy_fe)[T.Philippines_panel_2009],0.8295,0.1763,4.704,0.0,***,36772,0.6711,0.6706,39.5,0.39476108523051423,5.3,0.6634,-0.8402,0.0,inverted-U,,,,
M5,C(cy_fe)[T.Philippines_panel_2015],1.0783,0.1757,6.137,0.0,***,36772,0.6711,0.6706,39.5,0.39476108523051423,5.3,0.6634,-0.8402,0.0,inverted-U,,,,
M5,C(cy_fe)[T.SriLanka_2011],0.3989,0.1851,2.155,0.0312,*,36772,0.6711,0.6706,39.5,0.39476108523051423,5.3,0.6634,-0.8402,0.0,inverted-U,,,,
M5,C(cy_fe)[T.Tajikistan_2013],-3.0799,0.222,-13.875,0.0,***,36772,0.6711,0.6706,39.5,0.39476108523051423,5.3,0.6634,-0.8402,0.0,inverted-U,,,,
M5,C(cy_fe)[T.Tajikistan_2019],-1.882,0.208,-9.047,0.0,***,36772,0.6711,0.6706,39.5,0.39476108523051423,5.3,0.6634,-0.8402,0.0,inverted-U,,,,
M5,C(cy_fe)[T.Thailand_2016],0.6312,0.1807,3.493,0.0005,***,36772,0.6711,0.6706,39.5,0.39476108523051423,5.3,0.6634,-0.8402,0.0,inverted-U,,,,
M5,C(cy_fe)[T.TimorLeste_2009],-3.8204,0.293,-13.038,0.0,***,36772,0.6711,0.6706,39.5,0.39476108523051423,5.3,0.6634,-0.8402,0.0,inverted-U,,,,
M5,C(cy_fe)[T.TimorLeste_2015],-3.8755,0.1962,-19.754,0.0,***,36772,0.6711,0.6706,39.5,0.39476108523051423,5.3,0.6634,-0.8402,0.0,inverted-U,,,,
M5,C(cy_fe)[T.Uzbekistan_2013],3.5854,0.2018,17.764,0.0,***,36772,0.6711,0.6706,39.5,0.39476108523051423,5.3,0.6634,-0.8402,0.0,inverted-U,,,,
M5,C(cy_fe)[T.Uzbekistan_2019],4.8546,0.1836,26.445,0.0,***,36772,0.6711,0.6706,39.5,0.39476108523051423,5.3,0.6634,-0.8402,0.0,inverted-U,,,,
M5,C(cy_fe)[T.Vanuatu_2009],1.9557,0.2365,8.27,0.0,***,36772,0.6711,0.6706,39.5,0.39476108523051423,5.3,0.6634,-0.8402,0.0,inverted-U,,,,
M5,C(cy_fe)[T.Vietnam_2009],6.29,0.1804,34.863,0.0,***,36772,0.6711,0.6706,39.5,0.39476108523051423,5.3,0.6634,-0.8402,0.0,inverted-U,,,,
M5,C(cy_fe)[T.Vietnam_2015],7.1878,0.1802,39.894,0.0,***,36772,0.6711,0.6706,39.5,0.39476108523051423,5.3,0.6634,-0.8402,0.0,inverted-U,,,,
M5,C(cy_fe)[T.Yemen_2010],1.4658,0.2022,7.251,0.0,***,36772,0.6711,0.6706,39.5,0.39476108523051423,5.3,0.6634,-0.8402,0.0,inverted-U,,,,
M5,C(cy_fe)[T.Yemen_2013],2.3426,0.2137,10.962,0.0,***,36772,0.6711,0.6706,39.5,0.39476108523051423,5.3,0.6634,-0.8402,0.0,inverted-U,,,,
M5,fsts_c,0.6634,0.1,6.633,0.0,***,36772,0.6711,0.6706,39.5,0.39476108523051423,5.3,0.6634,-0.8402,0.0,inverted-U,,,,
M5,fsts_c2,-0.8402,0.1523,-5.516,0.0,***,36772,0.6711,0.6706,39.5,0.39476108523051423,5.3,0.6634,-0.8402,0.0,inverted-U,,,,
M5,female_owner,-0.0259,0.0196,-1.323,0.186,,36772,0.6711,0.6706,39.5,0.39476108523051423,5.3,0.6634,-0.8402,0.0,inverted-U,,,,
M5,foreign_own_pct,-0.3634,0.0289,-12.583,0.0,***,36772,0.6711,0.6706,39.5,0.39476108523051423,5.3,0.6634,-0.8402,0.0,inverted-U,,,,
M5,firm_age,0.0057,0.0006,8.91,0.0,***,36772,0.6711,0.6706,39.5,0.39476108523051423,5.3,0.6634,-0.8402,0.0,inverted-U,,,,
M5,ln_size,0.0835,0.0071,11.696,0.0,***,36772,0.6711,0.6706,39.5,0.39476108523051423,5.3,0.6634,-0.8402,0.0,inverted-U,,,,
M6,Intercept,14.5776,0.0762,191.421,0.0,***,36481,0.0272,0.027,33.0,0.33044758095282856,2.04,2.2558,-3.4132,0.0,inverted-U,,,,
M6,fsts_c,2.2558,0.1577,14.305,0.0,***,36481,0.0272,0.027,33.0,0.33044758095282856,2.04,2.2558,-3.4132,0.0,inverted-U,,,,
M6,fsts_c2,-3.4132,0.2236,-15.264,0.0,***,36481,0.0272,0.027,33.0,0.33044758095282856,2.04,2.2558,-3.4132,0.0,inverted-U,,,,
M6,tci_z,0.3423,0.0189,18.146,0.0,***,36481,0.0272,0.027,33.0,0.33044758095282856,2.04,2.2558,-3.4132,0.0,inverted-U,,,,
M6,female_owner,0.0316,0.0295,1.073,0.2833,,36481,0.0272,0.027,33.0,0.33044758095282856,2.04,2.2558,-3.4132,0.0,inverted-U,,,,
M6,foreign_own_pct,0.6892,0.0487,14.15,0.0,***,36481,0.0272,0.027,33.0,0.33044758095282856,2.04,2.2558,-3.4132,0.0,inverted-U,,,,
M6,firm_age,-0.0095,0.001,-9.232,0.0,***,36481,0.0272,0.027,33.0,0.33044758095282856,2.04,2.2558,-3.4132,0.0,inverted-U,,,,
M6,ln_size,-0.0547,0.0122,-4.5,0.0,***,36481,0.0272,0.027,33.0,0.33044758095282856,2.04,2.2558,-3.4132,0.0,inverted-U,,,,
M7,Intercept,14.5792,0.0762,191.334,0.0,***,36481,0.0277,0.0275,34.2,0.34213488916684165,2.12,2.249,-3.2868,0.0,inverted-U,9.8622,0.0001,,
M7,fsts_c,2.249,0.1578,14.249,0.0,***,36481,0.0277,0.0275,34.2,0.34213488916684165,2.12,2.249,-3.2868,0.0,inverted-U,9.8622,0.0001,,
M7,fsts_c2,-3.2868,0.2257,-14.559,0.0,***,36481,0.0277,0.0275,34.2,0.34213488916684165,2.12,2.249,-3.2868,0.0,inverted-U,9.8622,0.0001,,
M7,tci_z,0.3721,0.0269,13.852,0.0,***,36481,0.0277,0.0275,34.2,0.34213488916684165,2.12,2.249,-3.2868,0.0,inverted-U,9.8622,0.0001,,
M7,fsts_c_x_tci,-0.0899,0.1905,-0.472,0.6369,,36481,0.0277,0.0275,34.2,0.34213488916684165,2.12,2.249,-3.2868,0.0,inverted-U,9.8622,0.0001,,
M7,fsts_c2_x_tci,-0.2273,0.2669,-0.852,0.3943,,36481,0.0277,0.0275,34.2,0.34213488916684165,2.12,2.249,-3.2868,0.0,inverted-U,9.8622,0.0001,,
M7,female_owner,0.0293,0.0295,0.993,0.3207,,36481,0.0277,0.0275,34.2,0.34213488916684165,2.12,2.249,-3.2868,0.0,inverted-U,9.8622,0.0001,,
M7,foreign_own_pct,0.6929,0.0487,14.232,0.0,***,36481,0.0277,0.0275,34.2,0.34213488916684165,2.12,2.249,-3.2868,0.0,inverted-U,9.8622,0.0001,,
M7,firm_age,-0.0095,0.001,-9.204,0.0,***,36481,0.0277,0.0275,34.2,0.34213488916684165,2.12,2.249,-3.2868,0.0,inverted-U,9.8622,0.0001,,
M7,ln_size,-0.0561,0.0122,-4.616,0.0,***,36481,0.0277,0.0275,34.2,0.34213488916684165,2.12,2.249,-3.2868,0.0,inverted-U,9.8622,0.0001,,
M8,Intercept,14.7185,0.0771,190.868,0.0,***,36372,0.0337,0.0334,34.2,0.3421890618157136,2.24,2.1541,-3.1475,0.0,inverted-U,,,6.5691,0.0014
M8,fsts_c,2.1541,0.1594,13.511,0.0,***,36372,0.0337,0.0334,34.2,0.3421890618157136,2.24,2.1541,-3.1475,0.0,inverted-U,,,6.5691,0.0014
M8,fsts_c2,-3.1475,0.2281,-13.797,0.0,***,36372,0.0337,0.0334,34.2,0.3421890618157136,2.24,2.1541,-3.1475,0.0,inverted-U,,,6.5691,0.0014
M8,tci_z,0.33,0.0279,11.828,0.0,***,36372,0.0337,0.0334,34.2,0.3421890618157136,2.24,2.1541,-3.1475,0.0,inverted-U,,,6.5691,0.0014
M8,fsts_c_x_tci,0.1585,0.199,0.796,0.4258,,36372,0.0337,0.0334,34.2,0.3421890618157136,2.24,2.1541,-3.1475,0.0,inverted-U,,,6.5691,0.0014
M8,fsts_c2_x_tci,-0.4926,0.2788,-1.767,0.0773,†,36372,0.0337,0.0334,34.2,0.3421890618157136,2.24,2.1541,-3.1475,0.0,inverted-U,,,6.5691,0.0014
M8,dai_z,0.1724,0.0239,7.213,0.0,***,36372,0.0337,0.0334,34.2,0.3421890618157136,2.24,2.1541,-3.1475,0.0,inverted-U,,,6.5691,0.0014
M8,fsts_c_x_dai,-0.5876,0.1675,-3.508,0.0005,***,36372,0.0337,0.0334,34.2,0.3421890618157136,2.24,2.1541,-3.1475,0.0,inverted-U,,,6.5691,0.0014
M8,fsts_c2_x_dai,0.7261,0.2382,3.048,0.0023,**,36372,0.0337,0.0334,34.2,0.3421890618157136,2.24,2.1541,-3.1475,0.0,inverted-U,,,6.5691,0.0014
M8,female_owner,0.0084,0.0295,0.286,0.7749,,36372,0.0337,0.0334,34.2,0.3421890618157136,2.24,2.1541,-3.1475,0.0,inverted-U,,,6.5691,0.0014
M8,foreign_own_pct,0.7171,0.0486,14.769,0.0,***,36372,0.0337,0.0334,34.2,0.3421890618157136,2.24,2.1541,-3.1475,0.0,inverted-U,,,6.5691,0.0014
M8,firm_age,-0.0095,0.001,-9.235,0.0,***,36372,0.0337,0.0334,34.2,0.3421890618157136,2.24,2.1541,-3.1475,0.0,inverted-U,,,6.5691,0.0014
M8,ln_size,-0.1032,0.0127,-8.114,0.0,***,36372,0.0337,0.0334,34.2,0.3421890618157136,2.24,2.1541,-3.1475,0.0,inverted-U,,,6.5691,0.0014
M9,Intercept,14.6527,0.0806,181.798,0.0,***,34228,0.0423,0.0419,32.2,0.3222974675270837,2.41,2.4289,-3.7681,0.0,inverted-U,,,,
M9,fsts_c,2.4289,0.2005,12.115,0.0,***,34228,0.0423,0.0419,32.2,0.3222974675270837,2.41,2.4289,-3.7681,0.0,inverted-U,,,,
M9,fsts_c2,-3.7681,0.2387,-15.785,0.0,***,34228,0.0423,0.0419,32.2,0.3222974675270837,2.41,2.4289,-3.7681,0.0,inverted-U,,,,
M9,tci_z,0.326,0.029,11.232,0.0,***,34228,0.0423,0.0419,32.2,0.3222974675270837,2.41,2.4289,-3.7681,0.0,inverted-U,,,,
M9,fsts_c_x_tci,0.1575,0.2086,0.755,0.4501,,34228,0.0423,0.0419,32.2,0.3222974675270837,2.41,2.4289,-3.7681,0.0,inverted-U,,,,
M9,fsts_c2_x_tci,-0.4333,0.2913,-1.487,0.137,,34228,0.0423,0.0419,32.2,0.3222974675270837,2.41,2.4289,-3.7681,0.0,inverted-U,,,,
M9,dai_z,0.1601,0.0247,6.476,0.0,***,34228,0.0423,0.0419,32.2,0.3222974675270837,2.41,2.4289,-3.7681,0.0,inverted-U,,,,
M9,fsts_c_x_dai,-0.7858,0.1744,-4.505,0.0,***,34228,0.0423,0.0419,32.2,0.3222974675270837,2.41,2.4289,-3.7681,0.0,inverted-U,,,,
M9,fsts_c2_x_dai,0.9821,0.2477,3.965,0.0001,***,34228,0.0423,0.0419,32.2,0.3222974675270837,2.41,2.4289,-3.7681,0.0,inverted-U,,,,
M9,mgr_experience,0.0179,0.0015,11.927,0.0,***,34228,0.0423,0.0419,32.2,0.3222974675270837,2.41,2.4289,-3.7681,0.0,inverted-U,,,,
M9,fsts_c_x_mgr,0.0053,0.005,1.059,0.2896,,34228,0.0423,0.0419,32.2,0.3222974675270837,2.41,2.4289,-3.7681,0.0,inverted-U,,,,
M9,mgr_female,0.2016,0.0408,4.945,0.0,***,34228,0.0423,0.0419,32.2,0.3222974675270837,2.41,2.4289,-3.7681,0.0,inverted-U,,,,
M9,female_owner,-0.0459,0.0339,-1.351,0.1767,,34228,0.0423,0.0419,32.2,0.3222974675270837,2.41,2.4289,-3.7681,0.0,inverted-U,,,,
M9,foreign_own_pct,0.722,0.0497,14.525,0.0,***,34228,0.0423,0.0419,32.2,0.3222974675270837,2.41,2.4289,-3.7681,0.0,inverted-U,,,,
M9,firm_age,-0.0166,0.0012,-13.678,0.0,***,34228,0.0423,0.0419,32.2,0.3222974675270837,2.41,2.4289,-3.7681,0.0,inverted-U,,,,
M9,ln_size,-0.1059,0.0132,-8.047,0.0,***,34228,0.0423,0.0419,32.2,0.3222974675270837,2.41,2.4289,-3.7681,0.0,inverted-U,,,,
M10,Intercept,11.9168,0.1641,72.634,0.0,***,30360,0.0391,0.0388,,,,-6.497149171548218,10.449115089048426,1.0,U or linear (b2>=0),,,,
M10,fsts_c,-6.4971,1.2819,-5.068,0.0,***,30360,0.0391,0.0388,,,,-6.497149171548218,10.449115089048426,1.0,U or linear (b2>=0),,,,
M10,fsts_c2,10.4491,1.831,5.707,0.0,***,30360,0.0391,0.0388,,,,-6.497149171548218,10.449115089048426,1.0,U or linear (b2>=0),,,,
M10,tci_z,0.2785,0.0222,12.558,0.0,***,30360,0.0391,0.0388,,,,-6.497149171548218,10.449115089048426,1.0,U or linear (b2>=0),,,,
M10,dai_z,0.198,0.0181,10.914,0.0,***,30360,0.0391,0.0388,,,,-6.497149171548218,10.449115089048426,1.0,U or linear (b2>=0),,,,
M10,icrv_group,0.5916,0.0373,15.848,0.0,***,30360,0.0391,0.0388,,,,-6.497149171548218,10.449115089048426,1.0,U or linear (b2>=0),,,,
M10,fsts_c_x_icrv,1.8489,0.318,5.815,0.0,***,30360,0.0391,0.0388,,,,-6.497149171548218,10.449115089048426,1.0,U or linear (b2>=0),,,,
M10,fsts_c2_x_icrv,-2.9318,0.4529,-6.473,0.0,***,30360,0.0391,0.0388,,,,-6.497149171548218,10.449115089048426,1.0,U or linear (b2>=0),,,,
M10,female_owner,0.1418,0.035,4.05,0.0001,***,30360,0.0391,0.0388,,,,-6.497149171548218,10.449115089048426,1.0,U or linear (b2>=0),,,,
M10,foreign_own_pct,0.7888,0.052,15.173,0.0,***,30360,0.0391,0.0388,,,,-6.497149171548218,10.449115089048426,1.0,U or linear (b2>=0),,,,
M10,firm_age,-0.0107,0.0012,-9.241,0.0,***,30360,0.0391,0.0388,,,,-6.497149171548218,10.449115089048426,1.0,U or linear (b2>=0),,,,
M10,ln_size,-0.0624,0.0141,-4.435,0.0,***,30360,0.0391,0.0388,,,,-6.497149171548218,10.449115089048426,1.0,U or linear (b2>=0),,,,
M11,Intercept,11.6841,0.1311,89.117,0.0,***,28500,0.0572,0.0566,25.7,0.2570533439898084,13.14,1.1661,-2.2682,0.0257,inverted-U,,,,
M11,fsts_c,1.1661,0.5986,1.948,0.0514,†,28500,0.0572,0.0566,25.7,0.2570533439898084,13.14,1.1661,-2.2682,0.0257,inverted-U,,,,
M11,fsts_c2,-2.2682,0.2749,-8.25,0.0,***,28500,0.0572,0.0566,25.7,0.2570533439898084,13.14,1.1661,-2.2682,0.0257,inverted-U,,,,
M11,tci_z,0.2734,0.023,11.88,0.0,***,28500,0.0572,0.0566,25.7,0.2570533439898084,13.14,1.1661,-2.2682,0.0257,inverted-U,,,,
M11,dai_z,-0.0161,0.1073,-0.15,0.8804,,28500,0.0572,0.0566,25.7,0.2570533439898084,13.14,1.1661,-2.2682,0.0257,inverted-U,,,,
M11,icrv_group,0.6219,0.0259,24.006,0.0,***,28500,0.0572,0.0566,25.7,0.2570533439898084,13.14,1.1661,-2.2682,0.0257,inverted-U,,,,
M11,fsts_c_x_icrv,0.0603,0.1399,0.431,0.6666,,28500,0.0572,0.0566,25.7,0.2570533439898084,13.14,1.1661,-2.2682,0.0257,inverted-U,,,,
M11,fsts_c_x_dai,-0.1063,0.5891,-0.18,0.8568,,28500,0.0572,0.0566,25.7,0.2570533439898084,13.14,1.1661,-2.2682,0.0257,inverted-U,,,,
M11,dai_x_icrv,0.0524,0.0266,1.967,0.0492,*,28500,0.0572,0.0566,25.7,0.2570533439898084,13.14,1.1661,-2.2682,0.0257,inverted-U,,,,
M11,fsts_c_x_dai_x_icrv,-0.0161,0.1422,-0.113,0.9099,,28500,0.0572,0.0566,25.7,0.2570533439898084,13.14,1.1661,-2.2682,0.0257,inverted-U,,,,
M11,mgr_experience,0.0217,0.0017,12.635,0.0,***,28500,0.0572,0.0566,25.7,0.2570533439898084,13.14,1.1661,-2.2682,0.0257,inverted-U,,,,
M11,fsts_c_x_mgr,0.0068,0.006,1.125,0.2605,,28500,0.0572,0.0566,25.7,0.2570533439898084,13.14,1.1661,-2.2682,0.0257,inverted-U,,,,
M11,mgr_female,0.2105,0.0495,4.257,0.0,***,28500,0.0572,0.0566,25.7,0.2570533439898084,13.14,1.1661,-2.2682,0.0257,inverted-U,,,,
M11,female_owner,0.1224,0.0408,3.002,0.0027,**,28500,0.0572,0.0566,25.7,0.2570533439898084,13.14,1.1661,-2.2682,0.0257,inverted-U,,,,
M11,foreign_own_pct,0.781,0.0529,14.764,0.0,***,28500,0.0572,0.0566,25.7,0.2570533439898084,13.14,1.1661,-2.2682,0.0257,inverted-U,,,,
M11,firm_age,-0.0185,0.0014,-13.593,0.0,***,28500,0.0572,0.0566,25.7,0.2570533439898084,13.14,1.1661,-2.2682,0.0257,inverted-U,,,,
M11,ln_size,-0.0615,0.0145,-4.247,0.0,***,28500,0.0572,0.0566,25.7,0.2570533439898084,13.14,1.1661,-2.2682,0.0257,inverted-U,,,,
