thuyhuongctu-cell/my_thesis_phd_candidate_26/p7/replication/results/p7_summary_focal.csv
model,term,b,se,t,p,sig,n,r2,adj_r2,tp,tp_raw,tp_se,b1,b2,lm_p,shape,tci_mod_joint_F,tci_mod_joint_p,dai_mod_joint_F,dai_mod_joint_p
M0,Intercept,14.5932,0.0093,1576.163,0.0,***,76298,-0.0,-0.0,,,,,,,,,,,
M1,Intercept,14.5928,0.0093,1576.291,0.0,***,76298,0.0004,0.0004,,,,,,,,,,,
M1,fsts_c,0.1974,0.0382,5.164,0.0,***,76298,0.0004,0.0004,,,,,,,,,,,
M2,Intercept,14.6767,0.0123,1193.912,0.0,***,76298,0.0017,0.0017,38.4,0.3838614161465787,3.46,1.0077,-1.3126,0.0,inverted-U,,,,
M2,fsts_c,1.0077,0.1021,9.869,0.0,***,76298,0.0017,0.0017,38.4,0.3838614161465787,3.46,1.0077,-1.3126,0.0,inverted-U,,,,
M2,fsts_c2,-1.3126,0.1427,-9.196,0.0,***,76298,0.0017,0.0017,38.4,0.3838614161465787,3.46,1.0077,-1.3126,0.0,inverted-U,,,,
M3,Intercept,14.402,0.0804,179.021,0.0,***,33215,0.0198,0.0196,34.1,0.3407693101323443,1.91,2.5856,-3.7937,0.0,inverted-U,,,,
M3,fsts_c,2.5856,0.1641,15.757,0.0,***,33215,0.0198,0.0196,34.1,0.3407693101323443,1.91,2.5856,-3.7937,0.0,inverted-U,,,,
M3,fsts_c2,-3.7937,0.2349,-16.151,0.0,***,33215,0.0198,0.0196,34.1,0.3407693101323443,1.91,2.5856,-3.7937,0.0,inverted-U,,,,
M5,Intercept,12.814,0.1747,73.36,0.0,***,33215,0.6738,0.6733,38.7,0.38692900284945314,5.17,0.6738,-0.8707,0.0,inverted-U,,,,
M5,fsts_c,0.6738,0.1013,6.648,0.0,***,33215,0.6738,0.6733,38.7,0.38692900284945314,5.17,0.6738,-0.8707,0.0,inverted-U,,,,
M5,fsts_c2,-0.8707,0.1538,-5.661,0.0,***,33215,0.6738,0.6733,38.7,0.38692900284945314,5.17,0.6738,-0.8707,0.0,inverted-U,,,,
M6,Intercept,14.5643,0.0802,181.608,0.0,***,32932,0.0306,0.0304,33.1,0.33143559773245523,2.0,2.4107,-3.6367,0.0,inverted-U,,,,
M6,fsts_c,2.4107,0.165,14.612,0.0,***,32932,0.0306,0.0304,33.1,0.33143559773245523,2.0,2.4107,-3.6367,0.0,inverted-U,,,,
M6,fsts_c2,-3.6367,0.235,-15.475,0.0,***,32932,0.0306,0.0304,33.1,0.33143559773245523,2.0,2.4107,-3.6367,0.0,inverted-U,,,,
M6,tci_z,0.3489,0.0197,17.681,0.0,***,32932,0.0306,0.0304,33.1,0.33143559773245523,2.0,2.4107,-3.6367,0.0,inverted-U,,,,
M7,Intercept,14.5662,0.0803,181.47,0.0,***,32932,0.0312,0.0309,34.2,0.341923464329728,2.07,2.4053,-3.5173,0.0,inverted-U,9.1062,0.0001,,
M7,fsts_c,2.4053,0.1652,14.557,0.0,***,32932,0.0312,0.0309,34.2,0.341923464329728,2.07,2.4053,-3.5173,0.0,inverted-U,9.1062,0.0001,,
M7,fsts_c2,-3.5173,0.2374,-14.818,0.0,***,32932,0.0312,0.0309,34.2,0.341923464329728,2.07,2.4053,-3.5173,0.0,inverted-U,9.1062,0.0001,,
M7,tci_z,0.3771,0.0291,12.967,0.0,***,32932,0.0312,0.0309,34.2,0.341923464329728,2.07,2.4053,-3.5173,0.0,inverted-U,9.1062,0.0001,,
M7,fsts_c_x_tci,-0.1105,0.1988,-0.556,0.5783,,32932,0.0312,0.0309,34.2,0.341923464329728,2.07,2.4053,-3.5173,0.0,inverted-U,9.1062,0.0001,,
M7,fsts_c2_x_tci,-0.1911,0.28,-0.683,0.4949,,32932,0.0312,0.0309,34.2,0.341923464329728,2.07,2.4053,-3.5173,0.0,inverted-U,9.1062,0.0001,,
M8,Intercept,14.7205,0.0814,180.905,0.0,***,32827,0.0377,0.0373,34.2,0.34153212421338086,2.17,2.3249,-3.4036,0.0,inverted-U,,,7.0892,0.0008
M8,fsts_c,2.3249,0.1671,13.913,0.0,***,32827,0.0377,0.0373,34.2,0.34153212421338086,2.17,2.3249,-3.4036,0.0,inverted-U,,,7.0892,0.0008
M8,fsts_c2,-3.4036,0.2402,-14.167,0.0,***,32827,0.0377,0.0373,34.2,0.34153212421338086,2.17,2.3249,-3.4036,0.0,inverted-U,,,7.0892,0.0008
M8,tci_z,0.3357,0.0303,11.069,0.0,***,32827,0.0377,0.0373,34.2,0.34153212421338086,2.17,2.3249,-3.4036,0.0,inverted-U,,,7.0892,0.0008
M8,fsts_c_x_tci,0.1529,0.208,0.735,0.4623,,32827,0.0377,0.0373,34.2,0.34153212421338086,2.17,2.3249,-3.4036,0.0,inverted-U,,,7.0892,0.0008
M8,fsts_c2_x_tci,-0.477,0.2928,-1.629,0.1033,,32827,0.0377,0.0373,34.2,0.34153212421338086,2.17,2.3249,-3.4036,0.0,inverted-U,,,7.0892,0.0008
M8,dai_z,0.1688,0.0264,6.395,0.0,***,32827,0.0377,0.0373,34.2,0.34153212421338086,2.17,2.3249,-3.4036,0.0,inverted-U,,,7.0892,0.0008
M8,fsts_c_x_dai,-0.6479,0.1761,-3.679,0.0002,***,32827,0.0377,0.0373,34.2,0.34153212421338086,2.17,2.3249,-3.4036,0.0,inverted-U,,,7.0892,0.0008
M8,fsts_c2_x_dai,0.8215,0.2515,3.266,0.0011,**,32827,0.0377,0.0373,34.2,0.34153212421338086,2.17,2.3249,-3.4036,0.0,inverted-U,,,7.0892,0.0008
M9,Intercept,14.5916,0.0843,173.035,0.0,***,31256,0.0478,0.0474,32.7,0.32685689995526196,2.43,2.5381,-3.8825,0.0,inverted-U,,,,
M9,fsts_c,2.5381,0.2084,12.178,0.0,***,31256,0.0478,0.0474,32.7,0.32685689995526196,2.43,2.5381,-3.8825,0.0,inverted-U,,,,
M9,fsts_c2,-3.8825,0.2488,-15.605,0.0,***,31256,0.0478,0.0474,32.7,0.32685689995526196,2.43,2.5381,-3.8825,0.0,inverted-U,,,,
M9,tci_z,0.3297,0.0311,10.603,0.0,***,31256,0.0478,0.0474,32.7,0.32685689995526196,2.43,2.5381,-3.8825,0.0,inverted-U,,,,
M9,fsts_c_x_tci,0.1388,0.2172,0.639,0.5226,,31256,0.0478,0.0474,32.7,0.32685689995526196,2.43,2.5381,-3.8825,0.0,inverted-U,,,,
M9,fsts_c2_x_tci,-0.3955,0.3043,-1.3,0.1937,,31256,0.0478,0.0474,32.7,0.32685689995526196,2.43,2.5381,-3.8825,0.0,inverted-U,,,,
M9,dai_z,0.1616,0.0267,6.045,0.0,***,31256,0.0478,0.0474,32.7,0.32685689995526196,2.43,2.5381,-3.8825,0.0,inverted-U,,,,
M9,fsts_c_x_dai,-0.8315,0.1818,-4.573,0.0,***,31256,0.0478,0.0474,32.7,0.32685689995526196,2.43,2.5381,-3.8825,0.0,inverted-U,,,,
M9,fsts_c2_x_dai,1.0505,0.2588,4.059,0.0,***,31256,0.0478,0.0474,32.7,0.32685689995526196,2.43,2.5381,-3.8825,0.0,inverted-U,,,,
M9,mgr_experience,0.0209,0.0016,13.426,0.0,***,31256,0.0478,0.0474,32.7,0.32685689995526196,2.43,2.5381,-3.8825,0.0,inverted-U,,,,
M9,mgr_female,0.2539,0.0425,5.977,0.0,***,31256,0.0478,0.0474,32.7,0.32685689995526196,2.43,2.5381,-3.8825,0.0,inverted-U,,,,
M10,Intercept,10.4968,0.2194,47.845,0.0,***,26815,0.0526,0.0522,,,,-10.4237128959427,16.929863492597985,1.0,U or linear (b2>=0),,,,
M10,fsts_c,-10.4237,1.4469,-7.204,0.0,***,26815,0.0526,0.0522,,,,-10.4237128959427,16.929863492597985,1.0,U or linear (b2>=0),,,,
M10,fsts_c2,16.9299,2.1012,8.057,0.0,***,26815,0.0526,0.0522,,,,-10.4237128959427,16.929863492597985,1.0,U or linear (b2>=0),,,,
M10,tci_z,0.2785,0.0235,11.862,0.0,***,26815,0.0526,0.0522,,,,-10.4237128959427,16.929863492597985,1.0,U or linear (b2>=0),,,,
M10,dai_z,0.1947,0.0195,9.97,0.0,***,26815,0.0526,0.0522,,,,-10.4237128959427,16.929863492597985,1.0,U or linear (b2>=0),,,,
M10,icrv_group,0.8933,0.0498,17.931,0.0,***,26815,0.0526,0.0522,,,,-10.4237128959427,16.929863492597985,1.0,U or linear (b2>=0),,,,
M10,fsts_c_x_icrv,2.7826,0.3583,7.765,0.0,***,26815,0.0526,0.0522,,,,-10.4237128959427,16.929863492597985,1.0,U or linear (b2>=0),,,,
M11,Intercept,10.6805,0.1562,68.361,0.0,***,25528,0.0739,0.0733,19.5,0.19510361873619309,15.25,0.8394,-2.1512,0.1011,not confirmed,,,,
M11,fsts_c,0.8394,0.6581,1.276,0.2021,,25528,0.0739,0.0733,19.5,0.19510361873619309,15.25,0.8394,-2.1512,0.1011,not confirmed,,,,
M11,fsts_c2,-2.1512,0.2889,-7.445,0.0,***,25528,0.0739,0.0733,19.5,0.19510361873619309,15.25,0.8394,-2.1512,0.1011,not confirmed,,,,
M11,tci_z,0.2684,0.0242,11.093,0.0,***,25528,0.0739,0.0733,19.5,0.19510361873619309,15.25,0.8394,-2.1512,0.1011,not confirmed,,,,
M11,dai_z,-0.0407,0.1305,-0.312,0.7549,,25528,0.0739,0.0733,19.5,0.19510361873619309,15.25,0.8394,-2.1512,0.1011,not confirmed,,,,
M11,icrv_group,0.8204,0.0313,26.218,0.0,***,25528,0.0739,0.0733,19.5,0.19510361873619309,15.25,0.8394,-2.1512,0.1011,not confirmed,,,,
M11,fsts_c_x_icrv,0.1309,0.1576,0.831,0.4062,,25528,0.0739,0.0733,19.5,0.19510361873619309,15.25,0.8394,-2.1512,0.1011,not confirmed,,,,
M11,fsts_c_x_dai,0.499,0.6556,0.761,0.4466,,25528,0.0739,0.0733,19.5,0.19510361873619309,15.25,0.8394,-2.1512,0.1011,not confirmed,,,,
M11,fsts_c_x_dai_x_icrv,-0.1599,0.1596,-1.002,0.3164,,25528,0.0739,0.0733,19.5,0.19510361873619309,15.25,0.8394,-2.1512,0.1011,not confirmed,,,,
M11,mgr_experience,0.0259,0.0018,14.397,0.0,***,25528,0.0739,0.0733,19.5,0.19510361873619309,15.25,0.8394,-2.1512,0.1011,not confirmed,,,,
M11,mgr_female,0.2679,0.0521,5.144,0.0,***,25528,0.0739,0.0733,19.5,0.19510361873619309,15.25,0.8394,-2.1512,0.1011,not confirmed,,,,
