thuyhuongctu-cell/my_thesis_phd_candidate_26/p7/replication/results/p7_summary_focal.csv
model,term,b,se,t,p,sig,n,r2,adj_r2,tp,tp_raw,tp_se,b1,b2,lm_p,shape,tci_mod_joint_F,tci_mod_joint_p,dai_mod_joint_F,dai_mod_joint_p
M0,Intercept,14.5759,0.009,1624.372,0.0,***,84910,0.0,0.0,,,,,,,,,,,
M1,Intercept,14.5756,0.009,1624.574,0.0,***,84910,0.0004,0.0003,,,,,,,,,,,
M1,fsts_c,0.196,0.0376,5.214,0.0,***,84910,0.0004,0.0003,,,,,,,,,,,
M2,Intercept,14.6879,0.0119,1233.056,0.0,***,84910,0.0026,0.0026,36.4,0.36350697107462254,2.44,1.3161,-1.8102,0.0,inverted-U,,,,
M2,fsts_c,1.3161,0.0998,13.193,0.0,***,84910,0.0026,0.0026,36.4,0.36350697107462254,2.44,1.3161,-1.8102,0.0,inverted-U,,,,
M2,fsts_c2,-1.8102,0.14,-12.931,0.0,***,84910,0.0026,0.0026,36.4,0.36350697107462254,2.44,1.3161,-1.8102,0.0,inverted-U,,,,
M3,Intercept,14.2128,0.0757,187.704,0.0,***,38342,0.0156,0.0154,33.8,0.33838427757929,2.05,2.2496,-3.324,0.0,inverted-U,,,,
M3,fsts_c,2.2496,0.1546,14.548,0.0,***,38342,0.0156,0.0154,33.8,0.33838427757929,2.05,2.2496,-3.324,0.0,inverted-U,,,,
M3,fsts_c2,-3.324,0.2205,-15.078,0.0,***,38342,0.0156,0.0154,33.8,0.33838427757929,2.05,2.2496,-3.324,0.0,inverted-U,,,,
M5,Intercept,12.8279,0.174,73.705,0.0,***,38342,0.6779,0.6774,40.0,0.400444746914436,5.55,0.6291,-0.7855,0.0,inverted-U,,,,
M5,fsts_c,0.6291,0.0978,6.434,0.0,***,38342,0.6779,0.6774,40.0,0.400444746914436,5.55,0.6291,-0.7855,0.0,inverted-U,,,,
M5,fsts_c2,-0.7855,0.1489,-5.277,0.0,***,38342,0.6779,0.6774,40.0,0.400444746914436,5.55,0.6291,-0.7855,0.0,inverted-U,,,,
M6,Intercept,14.3537,0.0756,189.856,0.0,***,38051,0.0245,0.0243,32.7,0.32711539090078096,2.16,2.0826,-3.1833,0.0,inverted-U,,,,
M6,fsts_c,2.0826,0.1556,13.386,0.0,***,38051,0.0245,0.0243,32.7,0.32711539090078096,2.16,2.0826,-3.1833,0.0,inverted-U,,,,
M6,fsts_c2,-3.1833,0.2209,-14.414,0.0,***,38051,0.0245,0.0243,32.7,0.32711539090078096,2.16,2.0826,-3.1833,0.0,inverted-U,,,,
M6,tci_z,0.3213,0.0187,17.215,0.0,***,38051,0.0245,0.0243,32.7,0.32711539090078096,2.16,2.0826,-3.1833,0.0,inverted-U,,,,
M7,Intercept,14.3555,0.0757,189.758,0.0,***,38051,0.0249,0.0247,33.9,0.3387899755716579,2.24,2.0829,-3.0741,0.0,inverted-U,9.195,0.0001,,
M7,fsts_c,2.0829,0.1557,13.377,0.0,***,38051,0.0249,0.0247,33.9,0.3387899755716579,2.24,2.0829,-3.0741,0.0,inverted-U,9.195,0.0001,,
M7,fsts_c2,-3.0741,0.2229,-13.793,0.0,***,38051,0.0249,0.0247,33.9,0.3387899755716579,2.24,2.0829,-3.0741,0.0,inverted-U,9.195,0.0001,,
M7,tci_z,0.3441,0.0265,12.975,0.0,***,38051,0.0249,0.0247,33.9,0.3387899755716579,2.24,2.0829,-3.0741,0.0,inverted-U,9.195,0.0001,,
M7,fsts_c_x_tci,-0.1436,0.188,-0.764,0.445,,38051,0.0249,0.0247,33.9,0.3387899755716579,2.24,2.0829,-3.0741,0.0,inverted-U,9.195,0.0001,,
M7,fsts_c2_x_tci,-0.1373,0.2636,-0.521,0.6025,,38051,0.0249,0.0247,33.9,0.3387899755716579,2.24,2.0829,-3.0741,0.0,inverted-U,9.195,0.0001,,
M8,Intercept,14.4859,0.0766,189.222,0.0,***,37940,0.0303,0.03,33.8,0.3384541271293093,2.36,1.9996,-2.954,0.0,inverted-U,,,7.258,0.0007
M8,fsts_c,1.9996,0.1573,12.712,0.0,***,37940,0.0303,0.03,33.8,0.3384541271293093,2.36,1.9996,-2.954,0.0,inverted-U,,,7.258,0.0007
M8,fsts_c2,-2.954,0.2253,-13.112,0.0,***,37940,0.0303,0.03,33.8,0.3384541271293093,2.36,1.9996,-2.954,0.0,inverted-U,,,7.258,0.0007
M8,tci_z,0.3073,0.0275,11.179,0.0,***,37940,0.0303,0.03,33.8,0.3384541271293093,2.36,1.9996,-2.954,0.0,inverted-U,,,7.258,0.0007
M8,fsts_c_x_tci,0.113,0.1962,0.576,0.5648,,37940,0.0303,0.03,33.8,0.3384541271293093,2.36,1.9996,-2.954,0.0,inverted-U,,,7.258,0.0007
M8,fsts_c2_x_tci,-0.4177,0.275,-1.519,0.1287,,37940,0.0303,0.03,33.8,0.3384541271293093,2.36,1.9996,-2.954,0.0,inverted-U,,,7.258,0.0007
M8,dai_z,0.1553,0.0237,6.569,0.0,***,37940,0.0303,0.03,33.8,0.3384541271293093,2.36,1.9996,-2.954,0.0,inverted-U,,,7.258,0.0007
M8,fsts_c_x_dai,-0.6139,0.1655,-3.71,0.0002,***,37940,0.0303,0.03,33.8,0.3384541271293093,2.36,1.9996,-2.954,0.0,inverted-U,,,7.258,0.0007
M8,fsts_c2_x_dai,0.7659,0.2356,3.251,0.0012,**,37940,0.0303,0.03,33.8,0.3384541271293093,2.36,1.9996,-2.954,0.0,inverted-U,,,7.258,0.0007
M9,Intercept,14.5216,0.0862,168.391,0.0,***,35568,0.0351,0.0347,36.1,0.36055868081113995,2.96,2.522,-3.4973,0.0,inverted-U,,,,
M9,fsts_c,2.522,0.2232,11.297,0.0,***,35568,0.0351,0.0347,36.1,0.36055868081113995,2.96,2.522,-3.4973,0.0,inverted-U,,,,
M9,fsts_c2,-3.4973,0.2368,-14.772,0.0,***,35568,0.0351,0.0347,36.1,0.36055868081113995,2.96,2.522,-3.4973,0.0,inverted-U,,,,
M9,tci_z,0.3044,0.0288,10.57,0.0,***,35568,0.0351,0.0347,36.1,0.36055868081113995,2.96,2.522,-3.4973,0.0,inverted-U,,,,
M9,fsts_c_x_tci,0.1336,0.2055,0.65,0.5155,,35568,0.0351,0.0347,36.1,0.36055868081113995,2.96,2.522,-3.4973,0.0,inverted-U,,,,
M9,fsts_c2_x_tci,-0.3983,0.2873,-1.386,0.1656,,35568,0.0351,0.0347,36.1,0.36055868081113995,2.96,2.522,-3.4973,0.0,inverted-U,,,,
M9,dai_z,0.1448,0.0246,5.876,0.0,***,35568,0.0351,0.0347,36.1,0.36055868081113995,2.96,2.522,-3.4973,0.0,inverted-U,,,,
M9,fsts_c_x_dai,-0.7799,0.1728,-4.513,0.0,***,35568,0.0351,0.0347,36.1,0.36055868081113995,2.96,2.522,-3.4973,0.0,inverted-U,,,,
M9,fsts_c2_x_dai,0.9939,0.2458,4.044,0.0001,***,35568,0.0351,0.0347,36.1,0.36055868081113995,2.96,2.522,-3.4973,0.0,inverted-U,,,,
M9,mgr_experience,0.0067,0.003,2.232,0.0256,*,35568,0.0351,0.0347,36.1,0.36055868081113995,2.96,2.522,-3.4973,0.0,inverted-U,,,,
M9,mgr_female,0.1852,0.0411,4.507,0.0,***,35568,0.0351,0.0347,36.1,0.36055868081113995,2.96,2.522,-3.4973,0.0,inverted-U,,,,
M10,Intercept,11.1875,0.1479,75.617,0.0,***,31928,0.0495,0.0492,,,,-5.5599905619622,8.516558369202539,1.0,U or linear (b2>=0),,,,
M10,fsts_c,-5.56,1.1815,-4.706,0.0,***,31928,0.0495,0.0492,,,,-5.5599905619622,8.516558369202539,1.0,U or linear (b2>=0),,,,
M10,fsts_c2,8.5166,1.669,5.103,0.0,***,31928,0.0495,0.0492,,,,-5.5599905619622,8.516558369202539,1.0,U or linear (b2>=0),,,,
M10,tci_z,0.256,0.0217,11.807,0.0,***,31928,0.0495,0.0492,,,,-5.5599905619622,8.516558369202539,1.0,U or linear (b2>=0),,,,
M10,dai_z,0.1814,0.0177,10.249,0.0,***,31928,0.0495,0.0492,,,,-5.5599905619622,8.516558369202539,1.0,U or linear (b2>=0),,,,
M10,icrv_group,0.7288,0.0333,21.887,0.0,***,31928,0.0495,0.0492,,,,-5.5599905619622,8.516558369202539,1.0,U or linear (b2>=0),,,,
M10,fsts_c_x_icrv,1.6356,0.2978,5.492,0.0,***,31928,0.0495,0.0492,,,,-5.5599905619622,8.516558369202539,1.0,U or linear (b2>=0),,,,
M11,Intercept,11.018,0.1263,87.212,0.0,***,29840,0.0679,0.0674,34.6,0.34610763715089393,12.03,1.557,-2.2493,0.0021,inverted-U,,,,
M11,fsts_c,1.557,0.5428,2.868,0.0041,**,29840,0.0679,0.0674,34.6,0.34610763715089393,12.03,1.557,-2.2493,0.0021,inverted-U,,,,
M11,fsts_c2,-2.2493,0.2704,-8.318,0.0,***,29840,0.0679,0.0674,34.6,0.34610763715089393,12.03,1.557,-2.2493,0.0021,inverted-U,,,,
M11,tci_z,0.2502,0.0226,11.057,0.0,***,29840,0.0679,0.0674,34.6,0.34610763715089393,12.03,1.557,-2.2493,0.0021,inverted-U,,,,
M11,dai_z,-0.0597,0.095,-0.629,0.5295,,29840,0.0679,0.0674,34.6,0.34610763715089393,12.03,1.557,-2.2493,0.0021,inverted-U,,,,
M11,icrv_group,0.7788,0.0232,33.555,0.0,***,29840,0.0679,0.0674,34.6,0.34610763715089393,12.03,1.557,-2.2493,0.0021,inverted-U,,,,
M11,fsts_c_x_icrv,0.06,0.125,0.48,0.631,,29840,0.0679,0.0674,34.6,0.34610763715089393,12.03,1.557,-2.2493,0.0021,inverted-U,,,,
M11,fsts_c_x_dai,-0.1569,0.5217,-0.301,0.7636,,29840,0.0679,0.0674,34.6,0.34610763715089393,12.03,1.557,-2.2493,0.0021,inverted-U,,,,
M11,fsts_c_x_dai_x_icrv,-0.0012,0.1274,-0.01,0.9923,,29840,0.0679,0.0674,34.6,0.34610763715089393,12.03,1.557,-2.2493,0.0021,inverted-U,,,,
M11,mgr_experience,0.0092,0.0034,2.733,0.0063,**,29840,0.0679,0.0674,34.6,0.34610763715089393,12.03,1.557,-2.2493,0.0021,inverted-U,,,,
M11,mgr_female,0.1872,0.0489,3.832,0.0001,***,29840,0.0679,0.0674,34.6,0.34610763715089393,12.03,1.557,-2.2493,0.0021,inverted-U,,,,
