thuyhuongctu-cell/my_thesis_phd_candidate_26/p7/replication/results_rich/p7_coefs_all_models.csv
model,term,b,se,t,p,sig,n,r2,adj_r2,tp,b1,b2,lm_p,shape,tp_raw,tp_se,tci_mod_joint_F,tci_mod_joint_p,dai_mod_joint_F,dai_mod_joint_p
M0,Intercept,15.2605,0.0423,361.071,0.0,***,8253,0.0,0.0,,,,,,,,,,,
M1,Intercept,15.2607,0.0423,360.993,0.0,***,8253,0.0001,-0.0,,,,,,,,,,,
M1,fsts_c,-0.1327,0.1519,-0.874,0.3822,,8253,0.0001,-0.0,,,,,,,,,,,
M2,Intercept,13.4254,0.0668,200.896,0.0,***,8253,0.1752,0.175,,-13.367097264825013,22.698549377271867,1.0,U or linear (b2>=0),,,,,,
M2,fsts_c,-13.3671,0.4042,-33.073,0.0,***,8253,0.1752,0.175,,-13.367097264825013,22.698549377271867,1.0,U or linear (b2>=0),,,,,,
M2,fsts_c2,22.6985,0.6939,32.712,0.0,***,8253,0.1752,0.175,,-13.367097264825013,22.698549377271867,1.0,U or linear (b2>=0),,,,,,
M3,Intercept,11.7854,0.237,49.723,0.0,***,8229,0.1841,0.1836,,-13.681821309295888,22.617701212482494,1.0,U or linear (b2>=0),,,,,,
M3,fsts_c,-13.6818,0.4068,-33.634,0.0,***,8229,0.1841,0.1836,,-13.681821309295888,22.617701212482494,1.0,U or linear (b2>=0),,,,,,
M3,fsts_c2,22.6177,0.6898,32.787,0.0,***,8229,0.1841,0.1836,,-13.681821309295888,22.617701212482494,1.0,U or linear (b2>=0),,,,,,
M3,foreign_own_pct,0.0113,0.0018,6.178,0.0,***,8229,0.1841,0.1836,,-13.681821309295888,22.617701212482494,1.0,U or linear (b2>=0),,,,,,
M3,firm_age,0.6328,0.104,6.088,0.0,***,8229,0.1841,0.1836,,-13.681821309295888,22.617701212482494,1.0,U or linear (b2>=0),,,,,,
M3,ln_size,0.0996,0.0278,3.584,0.0003,***,8229,0.1841,0.1836,,-13.681821309295888,22.617701212482494,1.0,U or linear (b2>=0),,,,,,
M5,Intercept,13.528,0.1123,120.414,0.0,***,8229,0.8866,0.8864,22.9,0.5516,-1.2068,0.0001,inverted-U,0.22852986208194034,5.39,,,,
M5,C(cy_fe)[T.China_2024],0.4048,0.039,10.375,0.0,***,8229,0.8866,0.8864,22.9,0.5516,-1.2068,0.0001,inverted-U,0.22852986208194034,5.39,,,,
M5,C(cy_fe)[T.Singapore_2023],-1.2576,0.0516,-24.362,0.0,***,8229,0.8866,0.8864,22.9,0.5516,-1.2068,0.0001,inverted-U,0.22852986208194034,5.39,,,,
M5,C(cy_fe)[T.Vietnam_2009],6.9933,0.0517,135.273,0.0,***,8229,0.8866,0.8864,22.9,0.5516,-1.2068,0.0001,inverted-U,0.22852986208194034,5.39,,,,
M5,C(cy_fe)[T.Vietnam_2015],7.5925,0.0527,144.066,0.0,***,8229,0.8866,0.8864,22.9,0.5516,-1.2068,0.0001,inverted-U,0.22852986208194034,5.39,,,,
M5,C(cy_fe)[T.Vietnam_2023],8.1009,0.0529,153.128,0.0,***,8229,0.8866,0.8864,22.9,0.5516,-1.2068,0.0001,inverted-U,0.22852986208194034,5.39,,,,
M5,fsts_c,0.5516,0.1456,3.788,0.0002,***,8229,0.8866,0.8864,22.9,0.5516,-1.2068,0.0001,inverted-U,0.22852986208194034,5.39,,,,
M5,fsts_c2,-1.2068,0.2294,-5.26,0.0,***,8229,0.8866,0.8864,22.9,0.5516,-1.2068,0.0001,inverted-U,0.22852986208194034,5.39,,,,
M5,foreign_own_pct,0.0021,0.0006,3.565,0.0004,***,8229,0.8866,0.8864,22.9,0.5516,-1.2068,0.0001,inverted-U,0.22852986208194034,5.39,,,,
M5,firm_age,-0.4343,0.0451,-9.626,0.0,***,8229,0.8866,0.8864,22.9,0.5516,-1.2068,0.0001,inverted-U,0.22852986208194034,5.39,,,,
M5,ln_size,-0.0318,0.0119,-2.681,0.0073,**,8229,0.8866,0.8864,22.9,0.5516,-1.2068,0.0001,inverted-U,0.22852986208194034,5.39,,,,
M6,Intercept,11.7354,0.2373,49.457,0.0,***,8224,0.2052,0.2047,,-12.566323880047111,20.83510757725992,1.0,U or linear (b2>=0),,,,,,
M6,fsts_c,-12.5663,0.4183,-30.041,0.0,***,8224,0.2052,0.2047,,-12.566323880047111,20.83510757725992,1.0,U or linear (b2>=0),,,,,,
M6,fsts_c2,20.8351,0.7036,29.612,0.0,***,8224,0.2052,0.2047,,-12.566323880047111,20.83510757725992,1.0,U or linear (b2>=0),,,,,,
M6,tci_z,-0.6346,0.0427,-14.852,0.0,***,8224,0.2052,0.2047,,-12.566323880047111,20.83510757725992,1.0,U or linear (b2>=0),,,,,,
M6,foreign_own_pct,0.0103,0.0018,5.619,0.0,***,8224,0.2052,0.2047,,-12.566323880047111,20.83510757725992,1.0,U or linear (b2>=0),,,,,,
M6,firm_age,0.4375,0.1036,4.223,0.0,***,8224,0.2052,0.2047,,-12.566323880047111,20.83510757725992,1.0,U or linear (b2>=0),,,,,,
M6,ln_size,0.2482,0.0298,8.34,0.0,***,8224,0.2052,0.2047,,-12.566323880047111,20.83510757725992,1.0,U or linear (b2>=0),,,,,,
M7,Intercept,11.5774,0.231,50.119,0.0,***,8224,0.2357,0.235,,-13.214806881164238,22.034893297272788,1.0,U or linear (b2>=0),,,109.7217,0.0,,
M7,fsts_c,-13.2148,0.4511,-29.292,0.0,***,8224,0.2357,0.235,,-13.214806881164238,22.034893297272788,1.0,U or linear (b2>=0),,,109.7217,0.0,,
M7,fsts_c2,22.0349,0.7495,29.4,0.0,***,8224,0.2357,0.235,,-13.214806881164238,22.034893297272788,1.0,U or linear (b2>=0),,,109.7217,0.0,,
M7,tci_z,0.041,0.067,0.611,0.5409,,8224,0.2357,0.235,,-13.214806881164238,22.034893297272788,1.0,U or linear (b2>=0),,,109.7217,0.0,,
M7,fsts_c_x_tci,5.5539,0.3778,14.7,0.0,***,8224,0.2357,0.235,,-13.214806881164238,22.034893297272788,1.0,U or linear (b2>=0),,,109.7217,0.0,,
M7,fsts_c2_x_tci,-8.849,0.6225,-14.214,0.0,***,8224,0.2357,0.235,,-13.214806881164238,22.034893297272788,1.0,U or linear (b2>=0),,,109.7217,0.0,,
M7,foreign_own_pct,0.0103,0.0018,5.663,0.0,***,8224,0.2357,0.235,,-13.214806881164238,22.034893297272788,1.0,U or linear (b2>=0),,,109.7217,0.0,,
M7,firm_age,0.4359,0.1003,4.347,0.0,***,8224,0.2357,0.235,,-13.214806881164238,22.034893297272788,1.0,U or linear (b2>=0),,,109.7217,0.0,,
M7,ln_size,0.2204,0.0298,7.383,0.0,***,8224,0.2357,0.235,,-13.214806881164238,22.034893297272788,1.0,U or linear (b2>=0),,,109.7217,0.0,,
M8,Intercept,11.6548,0.2297,50.74,0.0,***,8220,0.2442,0.2432,,-12.690003206996188,21.18412042850171,1.0,U or linear (b2>=0),,,,,1.5818,0.2057
M8,fsts_c,-12.69,0.4613,-27.507,0.0,***,8220,0.2442,0.2432,,-12.690003206996188,21.18412042850171,1.0,U or linear (b2>=0),,,,,1.5818,0.2057
M8,fsts_c2,21.1841,0.7629,27.768,0.0,***,8220,0.2442,0.2432,,-12.690003206996188,21.18412042850171,1.0,U or linear (b2>=0),,,,,1.5818,0.2057
M8,tci_z,0.0635,0.0675,0.941,0.3468,,8220,0.2442,0.2432,,-12.690003206996188,21.18412042850171,1.0,U or linear (b2>=0),,,,,1.5818,0.2057
M8,fsts_c_x_tci,5.0181,0.4093,12.259,0.0,***,8220,0.2442,0.2432,,-12.690003206996188,21.18412042850171,1.0,U or linear (b2>=0),,,,,1.5818,0.2057
M8,fsts_c2_x_tci,-7.9204,0.6689,-11.841,0.0,***,8220,0.2442,0.2432,,-12.690003206996188,21.18412042850171,1.0,U or linear (b2>=0),,,,,1.5818,0.2057
M8,dai_z,-0.243,0.0871,-2.791,0.0052,**,8220,0.2442,0.2432,,-12.690003206996188,21.18412042850171,1.0,U or linear (b2>=0),,,,,1.5818,0.2057
M8,fsts_c_x_dai,0.744,0.4348,1.711,0.087,†,8220,0.2442,0.2432,,-12.690003206996188,21.18412042850171,1.0,U or linear (b2>=0),,,,,1.5818,0.2057
M8,fsts_c2_x_dai,-1.3134,0.7429,-1.768,0.0771,†,8220,0.2442,0.2432,,-12.690003206996188,21.18412042850171,1.0,U or linear (b2>=0),,,,,1.5818,0.2057
M8,foreign_own_pct,0.0098,0.0018,5.456,0.0,***,8220,0.2442,0.2432,,-12.690003206996188,21.18412042850171,1.0,U or linear (b2>=0),,,,,1.5818,0.2057
M8,firm_age,0.3777,0.0994,3.798,0.0001,***,8220,0.2442,0.2432,,-12.690003206996188,21.18412042850171,1.0,U or linear (b2>=0),,,,,1.5818,0.2057
M8,ln_size,0.2454,0.0298,8.242,0.0,***,8220,0.2442,0.2432,,-12.690003206996188,21.18412042850171,1.0,U or linear (b2>=0),,,,,1.5818,0.2057
M9,Intercept,11.4378,0.2316,49.394,0.0,***,8220,0.25,0.2488,,-13.945486566741693,21.111438079848604,1.0,U or linear (b2>=0),,,,,,
M9,fsts_c,-13.9455,0.6556,-21.271,0.0,***,8220,0.25,0.2488,,-13.945486566741693,21.111438079848604,1.0,U or linear (b2>=0),,,,,,
M9,fsts_c2,21.1114,0.7621,27.7,0.0,***,8220,0.25,0.2488,,-13.945486566741693,21.111438079848604,1.0,U or linear (b2>=0),,,,,,
M9,tci_z,0.082,0.0675,1.214,0.2246,,8220,0.25,0.2488,,-13.945486566741693,21.111438079848604,1.0,U or linear (b2>=0),,,,,,
M9,fsts_c_x_tci,4.9157,0.4115,11.945,0.0,***,8220,0.25,0.2488,,-13.945486566741693,21.111438079848604,1.0,U or linear (b2>=0),,,,,,
M9,fsts_c2_x_tci,-7.7852,0.6743,-11.546,0.0,***,8220,0.25,0.2488,,-13.945486566741693,21.111438079848604,1.0,U or linear (b2>=0),,,,,,
M9,dai_z,-0.2488,0.0871,-2.856,0.0043,**,8220,0.25,0.2488,,-13.945486566741693,21.111438079848604,1.0,U or linear (b2>=0),,,,,,
M9,fsts_c_x_dai,0.6668,0.4351,1.532,0.1254,,8220,0.25,0.2488,,-13.945486566741693,21.111438079848604,1.0,U or linear (b2>=0),,,,,,
M9,fsts_c2_x_dai,-1.2152,0.7444,-1.633,0.1026,,8220,0.25,0.2488,,-13.945486566741693,21.111438079848604,1.0,U or linear (b2>=0),,,,,,
M9,mgr_experience,0.4337,0.0586,7.407,0.0,***,8220,0.25,0.2488,,-13.945486566741693,21.111438079848604,1.0,U or linear (b2>=0),,,,,,
M9,fsts_c_x_mgr,0.5825,0.2055,2.835,0.0046,**,8220,0.25,0.2488,,-13.945486566741693,21.111438079848604,1.0,U or linear (b2>=0),,,,,,
M9,foreign_own_pct,0.0092,0.0018,5.069,0.0,***,8220,0.25,0.2488,,-13.945486566741693,21.111438079848604,1.0,U or linear (b2>=0),,,,,,
M9,firm_age,0.4252,0.1002,4.245,0.0,***,8220,0.25,0.2488,,-13.945486566741693,21.111438079848604,1.0,U or linear (b2>=0),,,,,,
M9,ln_size,0.0519,0.0397,1.308,0.191,,8220,0.25,0.2488,,-13.945486566741693,21.111438079848604,1.0,U or linear (b2>=0),,,,,,
M10,Intercept,6.7634,0.2914,23.208,0.0,***,8220,0.67,0.6696,31.9,31.5104,-49.3464,0.0,inverted-U,0.319278036584807,1.48,,,,
M10,fsts_c,31.5104,1.5486,20.348,0.0,***,8220,0.67,0.6696,31.9,31.5104,-49.3464,0.0,inverted-U,0.319278036584807,1.48,,,,
M10,fsts_c2,-49.3464,3.8157,-12.932,0.0,***,8220,0.67,0.6696,31.9,31.5104,-49.3464,0.0,inverted-U,0.319278036584807,1.48,,,,
M10,tci_z,-0.3854,0.0288,-13.372,0.0,***,8220,0.67,0.6696,31.9,31.5104,-49.3464,0.0,inverted-U,0.319278036584807,1.48,,,,
M10,dai_z,-0.0271,0.026,-1.043,0.2971,,8220,0.67,0.6696,31.9,31.5104,-49.3464,0.0,inverted-U,0.319278036584807,1.48,,,,
M10,icrv_group,2.5213,0.0764,32.996,0.0,***,8220,0.67,0.6696,31.9,31.5104,-49.3464,0.0,inverted-U,0.319278036584807,1.48,,,,
M10,fsts_c_x_icrv,-10.0399,0.4565,-21.992,0.0,***,8220,0.67,0.6696,31.9,31.5104,-49.3464,0.0,inverted-U,0.319278036584807,1.48,,,,
M10,fsts_c2_x_icrv,15.926,1.0973,14.514,0.0,***,8220,0.67,0.6696,31.9,31.5104,-49.3464,0.0,inverted-U,0.319278036584807,1.48,,,,
M10,foreign_own_pct,0.0172,0.0012,14.632,0.0,***,8220,0.67,0.6696,31.9,31.5104,-49.3464,0.0,inverted-U,0.319278036584807,1.48,,,,
M10,firm_age,0.005,0.0705,0.071,0.9437,,8220,0.67,0.6696,31.9,31.5104,-49.3464,0.0,inverted-U,0.319278036584807,1.48,,,,
M10,ln_size,-0.0651,0.0199,-3.265,0.0011,**,8220,0.67,0.6696,31.9,31.5104,-49.3464,0.0,inverted-U,0.319278036584807,1.48,,,,
M11,Intercept,3.2878,0.2287,14.379,0.0,***,8220,0.6364,0.6358,,-1.2055101426813617,4.559105221921991,1.0,U or linear (b2>=0),,,,,,
M11,fsts_c,-1.2055,0.8161,-1.477,0.1396,,8220,0.6364,0.6358,,-1.2055101426813617,4.559105221921991,1.0,U or linear (b2>=0),,,,,,
M11,fsts_c2,4.5591,0.449,10.153,0.0,***,8220,0.6364,0.6358,,-1.2055101426813617,4.559105221921991,1.0,U or linear (b2>=0),,,,,,
M11,tci_z,-0.4644,0.0286,-16.252,0.0,***,8220,0.6364,0.6358,,-1.2055101426813617,4.559105221921991,1.0,U or linear (b2>=0),,,,,,
M11,dai_z,0.8721,0.1892,4.61,0.0,***,8220,0.6364,0.6358,,-1.2055101426813617,4.559105221921991,1.0,U or linear (b2>=0),,,,,,
M11,icrv_group,3.522,0.0523,67.293,0.0,***,8220,0.6364,0.6358,,-1.2055101426813617,4.559105221921991,1.0,U or linear (b2>=0),,,,,,
M11,fsts_c_x_icrv,-0.4274,0.201,-2.126,0.0335,*,8220,0.6364,0.6358,,-1.2055101426813617,4.559105221921991,1.0,U or linear (b2>=0),,,,,,
M11,fsts_c_x_dai,1.2404,0.8616,1.44,0.15,,8220,0.6364,0.6358,,-1.2055101426813617,4.559105221921991,1.0,U or linear (b2>=0),,,,,,
M11,dai_x_icrv,-0.2776,0.0531,-5.227,0.0,***,8220,0.6364,0.6358,,-1.2055101426813617,4.559105221921991,1.0,U or linear (b2>=0),,,,,,
M11,fsts_c_x_dai_x_icrv,-0.2818,0.2256,-1.249,0.2115,,8220,0.6364,0.6358,,-1.2055101426813617,4.559105221921991,1.0,U or linear (b2>=0),,,,,,
M11,mgr_experience,0.3779,0.0402,9.407,0.0,***,8220,0.6364,0.6358,,-1.2055101426813617,4.559105221921991,1.0,U or linear (b2>=0),,,,,,
M11,fsts_c_x_mgr,-0.1165,0.1194,-0.976,0.3293,,8220,0.6364,0.6358,,-1.2055101426813617,4.559105221921991,1.0,U or linear (b2>=0),,,,,,
M11,foreign_own_pct,0.019,0.0011,16.858,0.0,***,8220,0.6364,0.6358,,-1.2055101426813617,4.559105221921991,1.0,U or linear (b2>=0),,,,,,
M11,firm_age,0.093,0.0757,1.229,0.2191,,8220,0.6364,0.6358,,-1.2055101426813617,4.559105221921991,1.0,U or linear (b2>=0),,,,,,
M11,ln_size,-0.2136,0.0267,-7.987,0.0,***,8220,0.6364,0.6358,,-1.2055101426813617,4.559105221921991,1.0,U or linear (b2>=0),,,,,,
